chenchuanalytics/RetailData/fact_promotion_effect.csv
date_key,product_key,store_key,promotion_key,channel_key,promo_flag,baseline_qty,actual_qty,lift_qty,baseline_sales_amt,actual_sales_amt,lift_sales_amt,markdown_amt,promo_cost_amt,incremental_margin_amt,lift_percent,roi
20210115,1,13,10,4,0,38.612,37.689,-0.923,25673.12,25059.42,-613.7,0,0,-613.7,-2.39,0
20210115,45,7,4,2,1,80.229,88.225,7.996,42069.68,39976.06,-2093.62,5716.73,2591.61,-1826.86,9.97,-170.49
20210115,16,6,3,4,1,42.246,43.01,0.764,21883.43,20966.68,-916.75,1289.18,2854.99,-3127.15,1.81,-209.53
20210115,47,12,5,4,1,99.438,103.216,3.778,71061.38,69962.99,-1098.39,3659.23,4874.85,-4143.63,3.8,-185
20210115,25,5,1,4,1,58.476,63.147,4.671,46505.96,40697.5,-5808.46,8818.87,2233.8,-3632.82,7.99,-262.63
20210115,9,1,4,2,1,78.641,85.202,6.561,36237.77,36117.67,-120.1,2901.35,2226.76,-896.19,8.34,-140.25
20210115,8,1,4,1,1,77.622,83.468,5.846,71310.56,70363.87,-946.69,5874.89,2384.34,-393.58,7.53,-116.51
20210115,16,18,10,1,1,51.416,56.059,4.643,29304.04,27790.29,-1513.75,3815.43,3227.05,-2833.08,9.03,-187.79
20210115,20,5,2,2,1,21.012,22.34,1.328,4993.08,4782.45,-210.63,494.92,2177.6,-2140.77,6.32,-198.31
20210115,31,19,10,3,1,68.918,70.084,1.166,12851.83,10795.81,-2056.02,2235.63,2451.87,-3390.07,1.69,-238.26
20210115,11,5,9,2,0,82.341,83.106,0.765,16392.45,16544.74,152.29,0,0,152.29,0.93,0
20210115,13,12,3,2,1,97.234,102.24,5.006,19319.42,16858.76,-2460.66,3286.13,863.43,-1681.02,5.15,-294.69
20210115,14,6,4,1,1,97.125,98.493,1.368,41464.61,35476.64,-5987.97,6480.71,4516.49,-7264.1,1.41,-260.84
20210115,10,14,4,3,0,82.741,80.171,-2.57,63464.83,61493.56,-1971.27,0,0,-1971.27,-3.11,0
20210115,10,14,4,3,1,74.826,77.515,2.689,57393.79,48323.25,-9070.54,10746.87,3865.36,-7562.47,3.59,-295.65
20210115,20,13,7,1,1,29.254,30.409,1.155,13668.35,13069.68,-598.67,1095.08,4515.73,-4566.86,3.95,-201.13
20210115,47,14,9,4,0,68.506,70.244,1.738,37662.54,38618.04,955.5,0,0,955.5,2.54,0
20210115,48,16,3,4,1,48.925,53.53,4.605,17951.07,18164.94,213.87,1348.8,1080.8,-192.53,9.41,-117.81
20210115,12,3,6,1,1,16.509,17.879,1.37,16418.37,15352.24,-1066.13,2242.51,3264.16,-3209.04,8.3,-198.31
20210115,6,6,3,2,1,71.318,71.714,0.396,10790.41,9643,-1147.41,1200.66,3045.93,-3593.01,0.56,-217.96
20210115,17,20,5,2,1,93.576,101.077,7.501,46874.09,48028.05,1153.96,2410.23,3395.42,-1036.34,8.02,-130.52
20210115,40,11,7,3,0,38.981,40.258,1.277,6783.08,7005.29,222.21,0,0,222.21,3.28,0
20210115,13,20,8,1,0,35.578,36.859,1.281,16205.42,16788.91,583.49,0,0,583.49,3.6,0
20210115,25,12,3,4,1,67.915,72.786,4.871,46493.93,42692.98,-3800.95,6658.06,3950.07,-4421.99,7.17,-211.95
20210115,46,16,5,2,0,81.234,77.317,-3.917,58613.58,55787.31,-2826.27,0,0,-2826.27,-4.82,0
20210115,32,3,5,3,1,57.877,60.955,3.078,45839.74,44530.83,-1308.91,3557.55,1589.66,-1119.8,5.32,-170.44
20210115,20,8,4,1,1,53.838,54.342,0.504,46470.27,41644.45,-4825.82,5212.06,2065.88,-4285.67,0.94,-307.45
20210115,11,5,7,2,0,10.886,10.985,0.099,2167.18,2186.89,19.71,0,0,19.71,0.91,0
20210115,4,10,5,1,1,67.541,69.939,2.398,25542.66,21293.79,-4248.87,4978.97,4324.44,-6083.82,3.55,-240.68
20210115,13,20,2,1,1,25.247,26.764,1.517,11499.76,9779.1,-1720.66,2274.94,2296.53,-2879.72,6.01,-225.39
20210115,40,16,5,1,1,94.329,103.095,8.766,65997.28,67699.37,1702.09,4054.29,1865.75,1863.48,9.29,-0.12
20210115,21,19,2,1,1,41.712,44.163,2.451,28831.33,28761.51,-69.82,1666.05,1780.88,-1017.68,5.88,-157.14
20210115,33,13,4,4,1,36.224,38.992,2.768,11164.6,11027.93,-136.67,919.53,4523.05,-4199.96,7.64,-192.86
20210115,1,13,3,4,1,47.4,50.509,3.109,31516.26,29360.77,-2155.49,3962.75,3118.6,-3292.72,6.56,-205.58
20210115,10,14,8,3,0,96.58,95.096,-1.484,74079.76,72941.48,-1138.28,0,0,-1138.28,-1.54,0
20210115,29,12,10,2,1,57.33,58.13,0.8,45564.16,42959.48,-2604.68,3195.91,900.08,-1906.8,1.4,-311.85
20210115,31,19,9,3,1,26.359,26.898,0.539,4915.43,4593.2,-322.23,414.27,4675.09,-4790.18,2.04,-202.46
20210115,44,3,5,1,1,47.599,48.881,1.282,26923.42,22497.55,-4425.87,5015.92,4052.4,-5970.31,2.69,-247.33
20210115,46,8,3,3,1,12.881,13.9,1.019,5640.59,5344.01,-296.58,688.35,1714.3,-1666.7,7.91,-197.22
20210115,31,14,5,4,0,68.33,69.302,0.972,53073.28,53828.25,754.97,0,0,754.97,1.42,0
20210115,2,12,1,2,1,71.802,73.752,1.95,68122.87,58451.39,-9671.48,11216.92,1359.57,-5422.59,2.72,-498.85
20210115,45,7,8,2,0,27.948,26.665,-1.283,14655.09,13982.33,-672.76,0,0,-672.76,-4.59,0
20210115,34,14,3,1,0,86.688,90.558,3.87,36980.23,38631.14,1650.91,0,0,1650.91,4.46,0
20210115,25,3,2,2,1,32.856,34.95,2.094,33144.8,31306.05,-1838.75,3714.43,4322.35,-4303.88,6.37,-199.57
20210115,7,17,9,4,0,73.015,71.851,-1.164,20855.27,20522.8,-332.47,0,0,-332.47,-1.59,0
20210115,43,5,8,4,0,70.899,69.968,-0.931,45010.23,44419.18,-591.05,0,0,-591.05,-1.31,0
20210115,14,17,10,3,1,74.69,82.132,7.442,30100.07,29511.5,-588.57,3262.61,4049.6,-3006.86,9.96,-174.25
20210115,44,9,3,3,1,30.938,31.246,0.308,29923.85,28642.56,-1281.29,1563.63,2451.39,-2950.86,1,-220.37
20210115,31,8,7,4,1,21.11,21.593,0.483,16087.3,14380.43,-1706.87,2028.53,2192.62,-2885.22,2.29,-231.59
20210115,2,12,2,2,0,39.306,40.439,1.133,37291.96,38366.91,1074.95,0,0,1074.95,2.88,0
20210115,20,13,10,1,1,19.665,20.76,1.095,9188.08,7937.69,-1250.39,1669.06,1638.92,-2054.78,5.57,-225.37
20210115,50,20,9,2,1,45.724,49.262,3.538,39522.91,36271.68,-3251.23,5856.27,4028.56,-4351.66,7.74,-208.02
20210115,38,9,6,4,0,77.474,76.08,-1.394,37695.75,37017.48,-678.27,0,0,-678.27,-1.8,0
20210115,3,12,7,1,1,27.818,29.711,1.893,7811.85,7475.67,-336.18,812.48,2755.68,-2685.62,6.8,-197.46
20210115,46,16,5,2,0,27.313,28.267,0.954,19707.42,20395.77,688.35,0,0,688.35,3.49,0
20210115,47,14,8,4,1,78.215,79.549,1.334,43000.26,36411.7,-6588.56,7199.16,4998.19,-7987.17,1.71,-259.8
20210115,23,1,9,1,1,50.581,52.087,1.506,13242.61,12581.28,-661.33,1025.1,555.82,-704.6,2.98,-226.77
20210115,40,11,3,3,0,61.708,61.298,-0.41,10737.81,10666.46,-71.35,0,0,-71.35,-0.66,0
20210115,42,8,1,1,0,45.548,44.305,-1.243,26577.71,25852.41,-725.3,0,0,-725.3,-2.73,0
20210115,8,16,4,2,0,97.275,95.121,-2.154,14786.77,14459.34,-327.43,0,0,-327.43,-2.21,0
20210215,2,12,7,2,1,61.283,66.693,5.41,58142.86,53804.66,-4338.2,8702.72,856.45,-843.29,8.83,-198.46
20210215,42,8,6,1,1,33.185,33.7,0.515,19363.78,17111.8,-2251.98,2513.48,1957.45,-2952.69,1.55,-250.84
20210215,11,5,2,2,1,94.725,99.528,4.803,18857.85,18470.72,-387.13,1278.49,655.87,-403.76,5.07,-161.56
20210215,41,19,8,1,1,26.717,29.363,2.646,22487.97,20368.58,-2119.39,3954.87,1338.45,-1480.41,9.9,-210.61
20210215,46,6,4,2,0,26.973,28.068,1.095,17948.91,18677.57,728.66,0,0,728.66,4.06,0
20210215,11,17,7,4,0,60.327,61.285,0.958,54483.73,55348.93,865.2,0,0,865.2,1.59,0
20210215,35,2,3,1,0,72.781,70.137,-2.644,69321.72,66803.39,-2518.33,0,0,-2518.33,-3.63,0
20210215,23,1,1,1,0,25.919,26.763,0.844,6785.85,7006.82,220.97,0,0,220.97,3.26,0
20210215,13,8,10,1,1,61.428,63.267,1.839,21806.94,21197.17,-609.77,1225.92,2447.66,-2444.47,2.99,-199.87
20210215,25,12,5,4,0,97.503,96.977,-0.526,66749.58,66389.48,-360.1,0,0,-360.1,-0.54,0
20210215,45,7,6,2,1,78.82,82.437,3.617,41330.84,39072.07,-2258.77,3973.1,853.29,-1125.51,4.59,-231.9
20210215,8,1,3,1,0,92.077,93.031,0.954,84590.22,85466.65,876.43,0,0,876.43,1.04,0
20210215,45,7,10,2,1,100,107.313,7.313,52437,52463.1,26.1,3549.07,4202.77,-2402.14,7.31,-157.16
20210215,30,2,2,3,0,77.327,78.416,1.089,51042.01,51760.83,718.82,0,0,718.82,1.41,0
20210215,30,9,3,1,1,60.904,65.428,4.524,47536.18,44804.73,-2731.45,5829.46,4705.29,-4522.01,7.43,-196.1
20210215,41,19,10,1,0,29.122,28.735,-0.387,24512.28,24186.54,-325.74,0,0,-325.74,-1.33,0
20210215,44,3,5,1,0,27.268,26.676,-0.592,15423.6,15088.75,-334.85,0,0,-334.85,-2.17,0
20210215,14,8,6,1,1,68.13,74.071,5.941,44694.64,43751.48,-943.16,4452.33,2108.5,-825.49,8.72,-139.15
20210215,14,8,10,1,1,57.872,63.261,5.389,37965.19,36507.94,-1457.25,4567.24,1265.42,-439.05,9.31,-134.7
20210215,20,5,5,2,0,97.135,95.87,-1.265,23082.19,22781.59,-300.6,0,0,-300.6,-1.3,0
20210215,1,20,9,1,1,89.606,97.981,8.375,23762.62,21870.6,-1892.02,3761.43,4145.25,-4156.56,9.35,-200.27
20210215,14,8,10,1,1,87.086,92.985,5.899,57130.16,56406.22,-723.94,4302.37,561.4,865.84,6.77,54.23
20210215,41,14,7,1,1,87.418,94.909,7.491,51656.17,47897.93,-3758.24,7538.74,4164.37,-4153.24,8.57,-199.73
20210215,21,19,5,1,1,19.788,20.611,0.823,13677.47,12975.83,-701.64,1219.76,1034.87,-1126.63,4.16,-208.87
20210215,8,16,1,2,1,92.36,93.08,0.72,14039.64,11480.41,-2559.23,2648.04,3473.83,-4709.04,0.78,-235.56
20210215,50,13,7,2,0,29.389,30.026,0.637,8457.86,8641.18,183.32,0,0,183.32,2.17,0
20210215,11,10,8,1,0,77.012,80.759,3.747,43779.01,45909.07,2130.06,0,0,2130.06,4.87,0
20210215,26,10,3,3,0,92.119,96.554,4.435,82674.96,86655.28,3980.32,0,0,3980.32,4.81,0
20210215,43,5,1,4,0,49.515,49.581,0.066,31434.6,31476.5,41.9,0,0,41.9,0.13,0
20210215,48,16,1,4,1,34.245,36.627,2.382,12564.83,12642.15,77.32,744.86,981.23,-531.48,6.96,-154.16
20210215,12,10,5,2,0,88.872,87.596,-1.276,39087.68,38526.47,-561.21,0,0,-561.21,-1.44,0
20210215,13,12,5,2,1,78.614,85.878,7.264,15619.82,15757.09,137.27,1195.54,526.09,208.95,9.24,-60.28
20210215,29,12,9,2,1,12.375,12.604,0.229,9835.28,9478.36,-356.92,529.13,3639.08,-3731.44,1.85,-202.54
20210215,35,7,3,1,1,55.988,60.912,4.924,29342.19,25549.56,-3792.63,5858,1868.41,-2732.04,8.79,-246.22
20210215,30,2,5,3,0,38.7,38.439,-0.261,25545.1,25372.82,-172.28,0,0,-172.28,-0.67,0
20210215,50,6,2,3,0,83.914,81.651,-2.263,74161.51,72161.52,-1999.99,0,0,-1999.99,-2.7,0
20210215,48,7,10,3,1,65.721,68.041,2.32,19603.92,18542.93,-1060.99,1693.25,645.6,-859.97,3.53,-233.2
20210215,24,19,3,4,1,10.191,11.11,0.919,1740.62,1699.69,-40.93,181.53,2708.44,-2658.6,9.02,-198.16
20210215,8,1,6,1,0,66.882,65.2,-1.682,61443.82,59898.59,-1545.23,0,0,-1545.23,-2.51,0
20210215,49,17,8,3,0,85.471,84.958,-0.513,79338.46,78862.26,-476.2,0,0,-476.2,-0.6,0
20210215,47,14,10,4,0,38.172,37.271,-0.901,20985.82,20490.48,-495.34,0,0,-495.34,-2.36,0
20210215,17,20,3,2,0,29.999,31.3,1.301,15027.1,15678.8,651.7,0,0,651.7,4.34,0
20210215,40,11,1,3,1,48.534,53.013,4.479,8445.4,8371.98,-73.42,780.76,3232.07,-2915.11,9.23,-190.19
20210215,45,14,3,4,1,49.657,50.444,0.787,38551.21,36005.91,-2545.3,3107.04,3726.38,-4718.16,1.58,-226.62
20210215,13,8,3,1,1,10.322,10.782,0.46,3664.31,3245.98,-418.33,556.82,1198.81,-1338.73,4.46,-211.67
20210215,29,12,5,2,1,59.07,59.463,0.393,46947.06,39905.86,-7041.2,7304.95,565.7,-3954.42,0.67,-799.03
20210215,29,6,9,4,1,64.894,65.292,0.398,9583.55,7925.76,-1657.79,1706.1,4218.98,-5023.72,0.61,-219.07
20210215,2,12,7,2,1,49.625,50.871,1.246,47082.22,44586.51,-2495.71,3587.78,2189.19,-2891.01,2.51,-232.06
20210215,10,16,7,1,1,46.511,49.087,2.576,6500.38,6186.48,-313.9,638.55,4567.76,-4562.38,5.54,-199.88
20210215,3,12,2,1,1,54.548,58.036,3.488,15318.17,13691.03,-1627.14,2449.98,3743.44,-4145.59,6.39,-210.74
20210215,17,20,7,2,1,83.741,91.908,8.167,41947.54,39776.45,-2171.09,5705.65,4854.96,-4173.23,9.75,-185.96
20210215,14,6,4,1,1,63.9,65.392,1.492,27280.19,22364.01,-4916.18,5426.44,2692.52,-4895.48,2.33,-281.82
20210215,40,16,9,1,0,19.807,19.324,-0.483,13857.97,13520.04,-337.93,0,0,-337.93,-2.44,0
20210215,31,8,4,4,1,88.516,91.654,3.138,67455.39,57674.99,-9780.4,11755.05,1957.08,-5859.96,3.55,-399.42
20210215,41,11,10,2,1,36.652,38.458,1.806,3778.45,3436.13,-342.32,503.69,4081.87,-4172.34,4.93,-202.22
20210215,47,14,9,4,1,15.643,15.73,0.087,8600.05,7022.79,-1577.26,1616.1,2224.11,-2993.32,0.56,-234.59
20210215,40,16,8,1,0,96.387,95.369,-1.018,67437.16,66724.92,-712.24,0,0,-712.24,-1.06,0
20210215,50,13,9,2,1,88.823,92.178,3.355,25562.37,23392.94,-2169.43,3020.86,1723.43,-2382.43,3.78,-238.24
20210215,40,11,2,3,1,59.21,63.034,3.824,10303.13,8841.35,-1461.78,1998.14,3315.06,-3777.77,6.46,-213.96
20210215,7,17,3,4,1,65.127,66.126,0.999,18602.23,17766.25,-835.98,1104.38,3779.82,-4063.61,1.53,-207.51
20210315,32,13,3,1,0,36.487,34.9,-1.587,33182.74,31739.46,-1443.28,0,0,-1443.28,-4.35,0
20210315,19,1,8,3,1,14.475,14.67,0.195,12987.11,11660.3,-1326.81,1481.8,2926.69,-3512.6,1.35,-220.02
20210315,10,16,3,1,0,74.544,77.303,2.759,10418.27,10803.87,385.6,0,0,385.6,3.7,0
20210315,11,15,6,2,1,10.085,10.409,0.324,8052.37,7457.14,-595.23,827.34,2702.2,-2883.76,3.21,-206.72
20210315,20,5,10,2,0,14.428,13.86,-0.568,3428.53,3293.55,-134.98,0,0,-134.98,-3.94,0
20210315,14,8,10,1,1,29.66,31.412,1.752,19457.55,18276.19,-1181.36,2200.71,4012.86,-4093.86,5.91,-202.02
20210315,7,3,1,1,0,23.211,22.232,-0.979,8359.67,8007.08,-352.59,0,0,-352.59,-4.22,0
20210315,7,17,2,4,1,76.81,80.869,4.059,21939.24,18865.88,-3073.36,4020.29,3796.33,-4859.54,5.28,-228.01
20210315,13,12,6,2,1,48.304,50.239,1.935,9597.52,8519.65,-1077.87,1406.01,4275.42,-4650.28,4.01,-208.77
20210315,13,2,4,4,0,40.19,39.411,-0.779,20070.08,19681.07,-389.01,0,0,-389.01,-1.94,0
20210315,48,16,1,4,1,11.975,12.799,0.824,4393.75,3967.59,-426.16,681.59,721.07,-806.44,6.88,-211.84
20210315,1,13,3,4,1,71.908,76.987,5.079,47811.63,47044.5,-767.13,3870.76,4572.28,-3404.03,7.06,-174.45
20210315,14,8,6,1,1,44.924,46.596,1.672,29471.04,27293.39,-2177.65,3157.02,640.44,-1239.58,3.72,-293.55
20210315,48,16,8,4,0,72.779,69.5,-3.279,26703.34,25500.25,-1203.09,0,0,-1203.09,-4.51,0
20210315,45,7,6,2,1,38.582,39.174,0.592,20231.24,18171.34,-2059.9,2334.51,1308.49,-2201.14,1.53,-268.22
20210315,6,6,5,2,1,65.741,72.313,6.572,9946.61,8993.38,-953.23,1770.58,2302.15,-2370.09,10,-202.95
20210315,44,9,9,3,0,76.987,75.557,-1.43,74463.37,73080.24,-1383.13,0,0,-1383.13,-1.86,0
20210315,49,12,4,4,1,96.972,101.166,4.194,30214.54,29657.8,-556.74,1786.25,4442.53,-4106.14,4.32,-192.43
20210315,41,14,4,1,1,55.685,59.422,3.737,32904.82,31966.46,-938.36,2948.71,1839.76,-1303.76,6.71,-170.87
20210315,17,11,7,3,1,99.04,104.072,5.032,32276.15,29863.65,-2412.5,3856.43,3625.99,-4110.27,5.08,-213.36
20210315,16,18,10,1,1,34.249,37.338,3.089,19519.88,17390.55,-2129.33,3568.06,2627.97,-2973.27,9.02,-213.14
20210315,43,5,4,4,0,50.485,51.873,1.388,32050.4,32931.57,881.17,0,0,881.17,2.75,0
20210315,50,13,5,2,1,52.912,57.535,4.623,15227.54,14295.78,-931.76,2080.44,1693.28,-1584.82,8.74,-193.59
20210315,16,7,4,1,1,68.813,72.895,4.082,37220.95,32181.52,-5039.43,6841.54,859.65,-2478.31,5.93,-388.29
20210315,31,8,6,4,0,91.69,94.107,2.417,69874.2,71716.12,1841.92,0,0,1841.92,2.64,0
20210315,1,13,9,4,0,69.443,71.362,1.919,46172.65,47448.59,1275.94,0,0,1275.94,2.76,0
20210315,3,12,4,1,1,95.03,96.763,1.733,26686.32,22347.57,-4338.75,4738.99,1013.84,-2983.1,1.82,-394.24
20210315,42,8,9,1,1,84.538,92.934,8.396,49328.77,50141.75,812.98,3717.01,3481.42,-809.94,9.93,-123.26
20210315,14,8,6,1,1,41.079,43.342,2.263,26948.65,24497.62,-2451.03,3730.11,1161.89,-1747.86,5.51,-250.43
20210315,13,8,10,1,0,12.968,13.478,0.51,4603.64,4784.69,181.05,0,0,181.05,3.93,0
20210315,23,1,2,1,0,26.226,25.031,-1.195,6866.23,6553.37,-312.86,0,0,-312.86,-4.56,0
20210315,13,8,8,1,1,60.009,62.408,2.399,21303.2,19504.23,-1798.97,2548.72,2036.44,-2561.05,4,-225.76
20210315,17,11,5,3,0,72.006,72.244,0.238,23466.04,23543.6,77.56,0,0,77.56,0.33,0
20210315,11,15,4,2,0,91.871,88.188,-3.683,73354.4,70413.71,-2940.69,0,0,-2940.69,-4.01,0
20210315,44,9,8,3,1,17.344,18.432,1.088,16775.46,15256.16,-1519.3,2419.84,1207.28,-1516.66,6.27,-225.63
20210315,19,1,8,3,0,72.381,72.356,-0.025,64940.96,64918.53,-22.43,0,0,-22.43,-0.03,0
20210315,30,9,6,1,0,85.279,87.029,1.75,66561.11,67927,1365.89,0,0,1365.89,2.05,0
20210315,25,12,2,4,0,15.884,15.216,-0.668,10874.03,10416.72,-457.31,0,0,-457.31,-4.21,0
20210315,4,19,10,1,1,83.195,88.573,5.378,24104.92,22239.75,-1865.17,3215.53,1917.88,-2175.28,6.46,-213.42
20210315,32,3,9,3,1,13.293,13.607,0.314,10528.32,10054.61,-473.71,705.74,3157.34,-3278.18,2.36,-203.83
20210315,12,10,7,2,1,45.966,49.983,4.017,20216.77,19538.46,-678.31,2248.56,3700.29,-3254.32,8.74,-187.95
20210315,45,7,5,2,1,19.833,21.289,1.456,10399.83,10180.89,-218.94,915.24,1937.64,-1698.96,7.34,-187.68
20210315,7,17,8,4,0,69.146,71.543,2.397,19750.17,20434.83,684.66,0,0,684.66,3.47,0
20210315,16,1,9,1,1,69.086,70.66,1.574,33799.63,31882.24,-1917.39,2627.6,1846.31,-2449.9,2.28,-232.69
20210315,49,18,4,2,1,98.652,108.089,9.437,83445.78,85005.93,1560.15,5861.52,2218.18,2272.73,9.57,2.46
20210315,35,2,8,1,0,36.353,34.907,-1.446,34625.14,33247.87,-1377.27,0,0,-1377.27,-3.98,0
20210315,12,3,9,1,0,29.558,28.925,-0.633,29395.73,28766.2,-629.53,0,0,-629.53,-2.14,0
20210315,43,5,7,4,1,49.414,50.374,0.96,31370.48,27341.58,-4028.9,4549.96,3044.02,-4797.94,1.94,-257.62
20210315,41,19,9,1,1,14.455,14.459,0.004,12166.92,11448.57,-718.35,721.52,3280.15,-3637.74,0.03,-210.9
20210315,30,9,6,1,1,78.312,83.734,5.422,61123.3,60004.47,-1118.83,5004.28,1019.16,364.15,6.92,-64.27
20210315,25,12,5,4,1,60.679,64.071,3.392,41540.24,37214.74,-4325.5,6295.69,1476.52,-2654.18,5.59,-279.76
20210315,41,14,5,1,0,66.077,65.492,-0.585,39045.56,38699.88,-345.68,0,0,-345.68,-0.89,0
20210315,16,1,8,1,1,15.923,17.508,1.585,7790.17,7393.26,-396.91,1066.22,2019.15,-1882.95,9.95,-193.25
20210315,7,3,7,1,0,77.07,78.227,1.157,27757.53,28174.24,416.71,0,0,416.71,1.5,0
20210315,8,16,2,2,1,53.718,55.45,1.732,8165.67,6968.46,-1197.21,1414.87,4682.47,-5172.25,3.22,-210.46
20210315,31,14,5,4,1,31.983,32.435,0.452,24841.84,22739.06,-2102.78,2419.65,2919.41,-3812.37,1.41,-230.59
20210315,14,6,6,1,0,49.729,52.093,2.364,21230.3,22239.54,1009.24,0,0,1009.24,4.75,0
20210315,30,2,3,3,1,22.751,22.96,0.209,15017.48,13791.63,-1225.85,1351.39,2207.44,-2757.6,0.92,-224.92
20210315,8,1,7,1,0,88.402,92.669,4.267,81214.03,85134.08,3920.05,0,0,3920.05,4.83,0
20210315,31,8,4,4,0,25.565,25.607,0.042,19482.32,19514.33,32.01,0,0,32.01,0.16,0
20210415,46,8,2,3,1,90.144,91.311,1.167,39474.06,36522.6,-2951.46,3418.23,4743.45,-5985.8,1.29,-226.19
20210415,28,14,4,4,0,56.7,57.013,0.313,37685.09,37893.12,208.03,0,0,208.03,0.55,0
20210415,39,14,5,4,1,69.299,71.37,2.071,34429.82,32987.36,-1442.46,2399.68,4893.5,-5136.12,2.99,-204.96
20210415,30,2,10,3,0,94.539,90.188,-4.351,62403.3,59531.3,-2872,0,0,-2872,-4.6,0
20210415,20,8,6,1,1,92.789,92.933,0.144,80090.83,65088.47,-15002.36,15103.21,1447.51,-8898.26,0.16,-714.73
20210415,50,13,7,2,0,66.816,65.426,-1.39,19228.98,18828.95,-400.03,0,0,-400.03,-2.08,0
20210415,40,11,4,3,0,34.047,35.736,1.689,5924.52,6218.42,293.9,0,0,293.9,4.96,0
20210415,40,11,9,3,1,35.37,37.534,2.164,6154.73,6167.4,12.67,342.91,4977.6,-4793.48,6.12,-196.3
20210415,30,2,3,3,1,59.146,62.62,3.474,39041.09,36356.96,-2684.13,4701.12,2300.61,-2634.18,5.87,-214.5
20210415,25,12,5,4,1,49.344,52.684,3.34,33780.41,33391.15,-389.26,2506.16,4892.63,-4028.81,6.77,-182.34
20210415,35,7,7,1,0,98.403,96.709,-1.694,51571.04,50683.25,-887.79,0,0,-887.79,-1.72,0
20210415,11,10,4,1,0,86.425,82.67,-3.755,49130.02,46995.41,-2134.61,0,0,-2134.61,-4.34,0
20210415,23,1,5,1,0,75.142,77.541,2.399,19672.93,20301.01,628.08,0,0,628.08,3.19,0
20210415,21,19,1,1,0,73.815,75.284,1.469,51020.93,52036.3,1015.37,0,0,1015.37,1.99,0
20210415,17,20,6,2,0,18.289,18.49,0.201,9161.33,9262.01,100.68,0,0,100.68,1.1,0
20210415,48,7,6,3,0,43.843,42.017,-1.826,13077.93,12533.25,-544.68,0,0,-544.68,-4.16,0
20210415,47,14,2,4,0,80.214,79.98,-0.234,44099.25,43970.6,-128.65,0,0,-128.65,-0.29,0
20210415,9,1,7,2,1,34.705,36.94,2.235,15992.06,15242.01,-750.05,1672.25,3881.94,-3795.86,6.44,-197.78
20210415,10,16,8,1,1,21.371,23.313,1.942,2986.81,3025.23,38.42,213.59,3589.12,-3443.9,9.09,-195.95
20210415,12,3,4,1,0,99.477,97.781,-1.696,98930.87,97244.18,-1686.69,0,0,-1686.69,-1.7,0
20210415,31,19,6,1,1,24.136,24.763,0.627,11374.33,10866.39,-507.94,783.08,2862.31,-2978.71,2.6,-204.07
20210415,16,7,9,1,1,87.8,92.605,4.805,47491.02,47457.81,-33.21,2495.65,3671.69,-2457.07,5.47,-166.92
20210415,3,12,3,1,0,45.053,43.962,-1.091,12651.78,12345.41,-306.37,0,0,-306.37,-2.42,0
20210415,11,5,2,2,0,19.182,19.336,0.154,3818.75,3849.41,30.66,0,0,30.66,0.8,0
20210415,48,16,2,4,0,94.472,91.294,-3.178,34662.72,33496.68,-1166.04,0,0,-1166.04,-3.36,0
20210415,31,19,7,1,0,49.577,48.748,-0.829,23363.66,22972.98,-390.68,0,0,-390.68,-1.67,0
20210415,30,9,7,1,1,55.299,55.347,0.048,43161.42,40339.76,-2821.66,2856.65,3470.16,-4863.5,0.09,-240.15
20210415,9,1,2,2,1,28.126,30.016,1.89,12960.46,11944.47,-1015.99,1768.09,1093.72,-1225.66,6.72,-212.06
20210415,44,13,9,4,1,84.026,90.232,6.206,35118.67,31199.92,-3918.75,6064.62,2105.35,-2991.79,7.39,-242.1
20210415,28,14,7,4,1,40.782,41.495,0.713,27105.35,25467.55,-1637.8,2075.4,3518.44,-4118.54,1.75,-217.06
20210415,6,6,5,2,1,96.579,97.454,0.875,14612.4,13791.15,-821.25,945.08,3704.27,-4052.98,0.91,-209.41
20210415,6,6,1,2,1,79.867,79.908,0.041,12083.88,11109.99,-973.89,979.59,3218.91,-3703,0.05,-215.04
20210415,3,12,9,1,1,72.556,73.681,1.125,20375.18,17806.01,-2569.17,2841.04,1559.32,-2707.97,1.55,-273.66
20210415,13,2,1,4,1,87.555,96.024,8.469,43723.22,40519.42,-3203.8,6777.48,1905.63,-1720.69,9.67,-190.3
20210415,4,10,8,1,0,52.273,50.272,-2.001,19768.6,19011.86,-756.74,0,0,-756.74,-3.83,0
20210415,14,17,5,3,1,81.54,81.921,0.381,32860.62,30339.59,-2521.03,2662.14,4068.67,-5258.63,0.47,-229.25
20210415,33,13,6,4,1,44.304,47.897,3.593,13654.94,13182.78,-472.16,1461.06,914.6,-656.23,8.11,-171.75
20210415,12,3,3,1,0,78.481,78.4,-0.081,78050.14,77969.58,-80.56,0,0,-80.56,-0.1,0
20210415,2,12,5,2,0,72.714,70.029,-2.685,68988.13,66440.71,-2547.42,0,0,-2547.42,-3.69,0
20210415,26,20,5,4,1,88.828,89.716,0.888,50580.44,47815.45,-2764.99,3238.26,4692.67,-5838.53,1,-224.42
20210415,50,20,10,2,0,71.235,74.317,3.082,61574.11,64238.13,2664.02,0,0,2664.02,4.33,0
20210415,14,6,5,1,0,74.63,76.738,2.108,31861.04,32760.99,899.95,0,0,899.95,2.82,0
20210415,45,7,6,2,1,18.695,19.024,0.329,9803.1,8873.02,-930.08,1083.53,3744.67,-4132.98,1.76,-210.37
20210415,19,1,5,3,1,92.928,95.382,2.454,83375.93,78908.22,-4467.71,6497.87,1454.81,-2673.59,2.64,-283.78
20210415,8,1,5,1,0,52.16,51.609,-0.551,47918.87,47412.67,-506.2,0,0,-506.2,-1.06,0
20210415,2,19,5,2,1,44.251,47.981,3.73,28928.65,27595.07,-1333.58,3478.79,1966.25,-1560.44,8.43,-179.36
20210415,46,8,3,3,1,13.378,14.387,1.009,5858.23,5635.38,-222.85,618.07,3067.76,-2981.58,7.54,-197.19
20210415,8,16,1,2,1,23.231,24.232,1.001,3531.34,3062.22,-469.12,595.62,2901.93,-3073.24,4.31,-205.9
20210415,13,20,2,1,0,22.796,22.545,-0.251,10383.35,10269.02,-114.33,0,0,-114.33,-1.1,0
20210415,28,14,3,4,1,36.597,38.249,1.652,24323.83,22168.95,-2154.88,3112.37,529.95,-1128.64,4.51,-312.97
20210415,40,16,6,1,0,29.576,28.53,-1.046,20692.85,19961.01,-731.84,0,0,-731.84,-3.54,0
20210415,26,10,3,3,1,33.462,35.691,2.229,30031.48,30110.58,79.1,1801.38,4787.4,-3807.61,6.66,-179.53
20210415,31,14,2,4,1,57.883,61.376,3.493,44958.88,39022.45,-5936.43,8157.26,3212.13,-5069.93,6.03,-257.84
20210415,30,2,1,3,0,11.107,11.56,0.453,7331.51,7630.52,299.01,0,0,299.01,4.08,0
20210415,8,16,10,2,0,12.279,12.64,0.361,1866.53,1921.41,54.88,0,0,54.88,2.94,0
20210415,45,7,4,2,0,60.798,58.29,-2.508,31880.65,30565.53,-1315.12,0,0,-1315.12,-4.13,0
20210415,40,11,10,3,1,70.249,74.134,3.885,12224.03,10833.74,-1390.29,1958.03,4554,-4965.27,5.53,-209.03
20210415,6,6,4,2,1,31.501,32.506,1.005,4766.1,4171.06,-595.04,724,2294.16,-2527.2,3.19,-210.16
20210415,47,14,3,4,1,47.219,50.709,3.49,25959.59,25345.1,-614.49,2358.84,4377.06,-3812.13,7.39,-187.09
20210415,12,10,8,2,0,86.456,82.265,-4.191,38025.08,36181.79,-1843.29,0,0,-1843.29,-4.85,0
20210415,9,1,7,2,0,70.293,67.612,-2.681,32391.01,31155.61,-1235.4,0,0,-1235.4,-3.81,0
20210415,29,12,2,2,1,51.184,53.678,2.494,40679.51,37167.42,-3512.09,5238.97,3578.98,-4471.58,4.87,-224.94
20210415,45,14,1,4,0,25.232,25.015,-0.217,19588.86,19420.4,-168.46,0,0,-168.46,-0.86,0
20210415,30,2,8,3,1,87.205,88.551,1.346,57562.28,52696.3,-4865.98,5666.97,1803.6,-3836.1,1.54,-312.69
20210415,29,12,10,2,0,70.716,72.965,2.249,56202.96,57990.39,1787.43,0,0,1787.43,3.18,0
20210415,33,13,2,4,1,30.913,33.127,2.214,9527.7,8554.13,-973.57,1545.27,4413.82,-4614.75,7.16,-204.55
20210415,38,9,4,4,1,62.503,65.888,3.385,30411.46,26322.98,-4088.48,5440.82,4632.39,-6000.46,5.42,-229.53
20210415,25,12,8,4,1,25.111,26.023,0.912,17190.74,16655.43,-535.31,1119.01,4660.41,-4636.21,3.63,-199.48
20210415,50,16,2,1,0,59.485,59.575,0.09,29001.32,29045.2,43.88,0,0,43.88,0.15,0
20210415,11,5,3,2,1,53.788,55.161,1.373,10708.12,8863.83,-1844.29,2064.92,4121.61,-4933.44,2.55,-219.7
20210415,29,12,6,2,1,22.737,23.156,0.419,18070.69,15884.96,-2185.73,2473.16,4936.35,-5885.5,1.84,-219.23
20210415,44,3,10,1,0,74.995,76.155,1.16,42419.42,43075.55,656.13,0,0,656.13,1.55,0
20210415,14,17,6,3,1,52.673,56.857,4.184,21227.22,21268.78,41.56,1523.57,2632.71,-1829.37,7.94,-169.49
20210415,35,7,8,1,1,70.647,71.01,0.363,37024.68,30167.78,-6856.9,7011.11,1867.98,-5219.32,0.51,-379.41
20210415,41,11,3,2,0,17.984,17.97,-0.014,1853.97,1852.53,-1.44,0,0,-1.44,-0.08,0
20210415,2,12,2,2,0,74.997,72.398,-2.599,71154.15,68688.33,-2465.82,0,0,-2465.82,-3.47,0
20210415,14,6,2,1,1,71.352,78.026,6.674,30461.6,31320.17,858.57,1820.41,1300.58,468.2,9.35,-64
20210415,30,2,7,3,1,43.003,46.801,3.798,28385.42,25886.25,-2499.17,4599.89,3899.27,-4098.5,8.83,-205.11
20210415,41,11,5,2,1,47.16,51.852,4.692,4861.72,4838.3,-23.42,461.23,2719.13,-2511.94,9.95,-192.38
20210415,40,16,4,1,1,90.245,98.298,8.053,63139.91,61541.3,-1598.61,6640.35,2039,-317.43,8.92,-115.57
20210415,16,1,8,1,1,56.667,61.279,4.612,27723.76,26719.51,-1004.25,3015.22,4527.57,-4024.21,8.14,-188.88
20210415,26,10,10,3,0,83.623,85.883,2.26,75049.97,77078.27,2028.3,0,0,2028.3,2.7,0
20210415,16,18,5,1,0,14.267,13.703,-0.564,8131.33,7809.89,-321.44,0,0,-321.44,-3.95,0
20210415,40,11,10,3,1,82.246,87.626,5.38,14311.63,13228.96,-1082.67,1894.89,4193.55,-4328.78,6.54,-203.22
20210415,11,17,5,4,1,95.639,100.854,5.215,86375.41,73612.54,-12762.87,16569.25,3534.24,-8012.48,5.45,-326.71
20210415,4,10,7,1,1,86.933,88.855,1.922,32876.32,31240.6,-1635.72,2311.48,772.35,-1252.33,2.21,-262.15
20210415,38,9,9,4,1,95.024,97.733,2.709,46234.88,43459.3,-2775.58,3980.2,3450.68,-4236.16,2.85,-222.76
20210415,40,11,9,3,1,44.832,47.361,2.529,7801.22,7720.37,-80.85,493.11,4316.66,-4150.96,5.64,-196.16
20210415,39,14,1,4,0,53.547,53.943,0.396,26603.76,26800.5,196.74,0,0,196.74,0.74,0
20210415,14,4,4,2,1,74.912,81.808,6.896,47949.67,42126.84,-5822.83,9373.91,1312.28,-2448.15,9.21,-286.56
20210515,25,12,7,4,0,97.014,97.401,0.387,66414.81,66679.75,264.94,0,0,264.94,0.4,0
20210515,45,7,5,2,0,90.242,87.992,-2.25,47320.2,46140.37,-1179.83,0,0,-1179.83,-2.49,0
20210515,13,2,7,4,0,31.353,30.693,-0.66,15657.06,15327.47,-329.59,0,0,-329.59,-2.11,0
20210515,11,10,3,1,1,50.718,51.433,0.715,28831.66,26409.64,-2422.02,2789.16,3975,-5002.44,1.41,-225.85
20210515,35,2,2,1,1,91.36,96.007,4.647,87017.66,77985.3,-9032.36,12807.06,3302.83,-5931.66,5.09,-279.59
20210515,1,20,10,1,1,56.677,61.065,4.388,15030.17,14293.45,-736.72,1763.82,1086.54,-941.35,7.74,-186.64
20210515,44,13,9,4,1,77.614,84.212,6.598,32438.77,30369.31,-2069.46,4448.89,1283.11,-1128.12,8.5,-187.92
20210515,28,14,10,4,0,77.528,79.715,2.187,51528.21,52981.78,1453.57,0,0,1453.57,2.82,0
20210515,42,14,10,1,0,52.787,52.329,-0.458,6728.76,6670.38,-58.38,0,0,-58.38,-0.87,0
20210515,13,2,6,4,1,82.227,85.763,3.536,41062.52,35696.33,-5366.19,6837.95,3711.25,-5658.46,4.3,-252.47
20210515,41,11,1,2,0,96.165,96.786,0.621,9913.65,9977.67,64.02,0,0,64.02,0.65,0
20210515,7,3,2,1,1,81.339,84.244,2.905,29295.05,24377.57,-4917.48,5758.1,4680.15,-6718.58,3.57,-243.55
20210515,10,16,5,1,1,99.19,103.76,4.57,13862.79,12769.75,-1093.04,1655.47,4961.02,-5226.33,4.61,-205.35
20210515,4,10,6,1,0,10.903,11.029,0.126,4123.3,4170.95,47.65,0,0,47.65,1.16,0
20210515,6,6,7,2,0,10.986,11.122,0.136,1662.18,1682.76,20.58,0,0,20.58,1.24,0
20210515,35,7,5,1,0,56.847,58.512,1.665,29792.38,30664.97,872.59,0,0,872.59,2.93,0
20210515,50,13,6,2,1,20.749,21.569,0.82,5971.35,5446.74,-524.61,731.69,2798.86,-2957.62,3.95,-205.67
20210515,21,19,10,1,1,60.753,65.438,4.685,41992.47,37262.57,-4729.9,7397.7,2994.26,-4025.31,7.71,-234.43
20210515,20,5,10,2,1,47.469,50.532,3.063,11280.06,11042.14,-237.92,907.24,745.8,-530.1,6.45,-171.08
20210515,1,20,8,1,0,21.21,22.019,0.809,5624.68,5839.22,214.54,0,0,214.54,3.81,0
20210515,29,12,1,2,1,48.381,51.72,3.339,38451.77,38512.2,60.43,2425.89,3529.47,-2256.1,6.9,-163.92
20210515,17,11,8,3,1,10.702,10.908,0.206,3487.67,3199.73,-287.94,348.38,3918.87,-4032.62,1.92,-202.9
20210515,31,8,9,4,1,50.411,51.336,0.925,38416.71,33917.55,-4499.16,5110.31,906.63,-2850.64,1.83,-414.42
20210515,42,14,1,1,0,72.004,72.819,0.815,9178.35,9282.24,103.89,0,0,103.89,1.13,0
20210515,10,16,8,1,1,73.419,78.033,4.614,10261.04,9337.06,-923.98,1476.07,2105.67,-2291.62,6.28,-208.83
20210515,7,3,2,1,0,75.908,74.902,-1.006,27339.03,26976.7,-362.33,0,0,-362.33,-1.33,0
20210515,31,14,6,4,1,11.103,11.508,0.405,8623.92,7161.81,-1462.11,1714.16,2136.85,-2741.88,3.65,-228.31
20210515,25,3,7,2,1,87.724,89.623,1.899,88495.09,77809.52,-10685.57,12334.26,1647.76,-6166.2,2.16,-474.22
20210515,30,9,10,1,0,58.566,60.151,1.585,45711.35,46948.46,1237.11,0,0,1237.11,2.71,0
20210515,50,13,2,2,0,78.168,80.277,2.109,22495.97,23102.92,606.95,0,0,606.95,2.7,0
20210515,44,9,7,3,0,46.048,48.299,2.251,44538.55,46715.76,2177.21,0,0,2177.21,4.89,0
20210515,11,15,1,2,1,46.954,51.257,4.303,37490.42,37784.76,294.34,2877.68,4530.3,-2797.12,9.16,-161.74
20210515,28,14,10,4,1,84.073,90.084,6.011,55878.28,49539.81,-6338.47,9644.1,2027.9,-3544.32,7.15,-274.78
20210515,20,5,10,2,0,38.684,36.937,-1.747,9192.48,8777.34,-415.14,0,0,-415.14,-4.52,0
20210515,8,16,10,2,1,44.493,47.05,2.557,6763.38,5738.79,-1024.59,1336.47,2265.64,-2621.99,5.75,-215.73
20210515,44,9,2,3,1,56.735,59.067,2.332,54875.23,45767.24,-9107.99,10914.9,1060.67,-4711.21,4.11,-544.17
20210515,20,5,4,2,1,74.833,80.581,5.748,17782.57,17436.18,-346.39,1590.14,2818.23,-2369.55,7.68,-184.08
20210515,23,1,7,1,0,75.05,71.769,-3.281,19648.84,18789.84,-859,0,0,-859,-4.37,0
20210515,25,5,6,4,1,49.735,53.665,3.93,39554.25,39701.01,146.76,2760.62,1476.15,50.92,7.9,-96.55
20210515,38,9,5,4,1,48.796,52.996,4.2,23742.18,22700.71,-1041.47,2840.53,4199.24,-3820.44,8.61,-190.98
20210515,50,13,4,2,0,69.522,69.585,0.063,20007.74,20025.87,18.13,0,0,18.13,0.09,0
20210515,41,11,8,2,1,19.704,20.161,0.457,2031.29,1958.73,-72.56,116.95,4971.01,-4985.1,2.32,-200.28
20210515,25,3,8,2,1,12.715,13.791,1.076,12826.76,12965.84,139.08,872.54,843.79,-268.44,8.46,-131.81
20210515,25,5,4,4,0,32.786,33.081,0.295,26074.71,26309.32,234.61,0,0,234.61,0.9,0
20210515,33,13,7,4,0,44.346,43.768,-0.578,13667.88,13489.74,-178.14,0,0,-178.14,-1.3,0
20210515,2,12,8,2,1,99.652,102.4,2.748,94545.83,85113.04,-9432.79,11716.88,3167.51,-6741.86,2.76,-312.84
20210515,7,3,8,1,1,43.239,46.779,3.54,15572.96,14390.11,-1182.85,2271.82,3616.14,-3663.08,8.19,-201.3
20210515,47,12,8,4,1,35.404,37.247,1.843,25300.76,23938.25,-1362.51,2546.99,614.6,-703.62,5.21,-214.48
20210515,2,19,6,2,0,27.78,27.61,-0.17,18160.9,18049.76,-111.14,0,0,-111.14,-0.61,0
20210515,42,15,8,3,1,32.607,34.269,1.662,20739.03,19130.46,-1608.57,2536.37,1399.36,-1739.74,5.1,-224.32
20210515,17,11,3,3,0,25.671,25.739,0.068,8365.92,8388.08,22.16,0,0,22.16,0.26,0
20210515,47,12,9,1,0,52.806,52.248,-0.558,39350.5,38934.69,-415.81,0,0,-415.81,-1.06,0
20210515,35,2,1,1,1,17.604,18.936,1.332,16767.28,16717.26,-50.02,1225.95,4664.53,-4101.58,7.57,-187.93
20210515,33,13,4,4,1,55.288,58.659,3.371,17040.31,16524.74,-515.57,1465.22,4835.72,-4618.68,6.1,-195.51
20210515,20,5,5,2,1,15.471,16.691,1.22,3676.37,3613.37,-63,327.12,3303.35,-3202.79,7.89,-196.96
20210515,13,12,5,2,0,51.156,53.1,1.944,10164.19,10550.44,386.25,0,0,386.25,3.8,0
20210515,17,11,10,3,0,46.679,48.467,1.788,15212.22,15794.91,582.69,0,0,582.69,3.83,0
20210515,8,1,5,1,1,94.399,100.887,6.488,86723.42,84915.77,-1807.65,7268.54,4234.37,-2407.75,6.87,-156.86
20210515,33,13,8,4,1,50.547,55.213,4.666,15579.09,13750.37,-1828.72,2990.75,2559.3,-2892.65,9.23,-213.03
20210515,44,3,9,1,0,70.081,73.57,3.489,39639.92,41613.4,1973.48,0,0,1973.48,4.98,0
20210515,31,19,3,1,1,13.094,13.623,0.529,6170.68,5947.8,-222.88,453.84,1403.3,-1399.26,4.04,-199.71
20210515,7,3,6,1,0,49.932,51.504,1.572,17983.51,18549.68,566.17,0,0,566.17,3.15,0
20210515,41,14,2,1,0,56.898,54.663,-2.235,33621.6,32300.91,-1320.69,0,0,-1320.69,-3.93,0
20210515,47,14,5,4,1,21.467,23.43,1.963,11801.91,11859.28,57.37,936.22,2823.89,-2298.41,9.14,-181.39
20210515,33,13,8,4,0,47.083,45.766,-1.317,14511.45,14105.54,-405.91,0,0,-405.91,-2.8,0
20210515,47,19,8,3,0,13.575,13.857,0.282,4645.77,4742.28,96.51,0,0,96.51,2.08,0
20210515,26,20,3,4,1,66.355,71.916,5.561,37783.86,33916.59,-3867.27,6489.91,3028.98,-3651.3,8.38,-220.55
20210515,3,12,8,1,0,57.589,58.895,1.306,16172.14,16538.89,366.75,0,0,366.75,2.27,0
20210515,8,1,6,1,1,90.7,91.644,0.944,83325.18,73576.68,-9748.5,10506.39,3294.09,-7789.4,1.04,-336.47
20210515,11,17,3,4,0,29.056,27.754,-1.302,26241.64,25065.75,-1175.89,0,0,-1175.89,-4.48,0
20210515,1,13,2,4,1,68.292,72.478,4.186,45407.35,45035.28,-372.07,2973.1,3648.53,-2534.05,6.13,-169.45
20210515,1,20,6,1,0,84.066,87.504,3.438,22293.46,23205.19,911.73,0,0,911.73,4.09,0
20210515,1,13,3,4,0,81.401,81.079,-0.322,54123.52,53909.43,-214.09,0,0,-214.09,-0.4,0
20210515,12,3,10,1,1,64.814,67.969,3.155,64458.17,58109.17,-6349,9046.32,3647.34,-5473.18,4.87,-250.06
20210515,50,13,1,2,0,15.987,15.247,-0.74,4600.9,4387.93,-212.97,0,0,-212.97,-4.63,0
20210515,7,17,3,4,1,48.417,48.89,0.473,13829.35,12003.8,-1825.55,1941.68,1413.03,-2267.74,0.98,-260.49
20210515,47,12,6,1,1,70.753,71.741,0.988,52724.43,47712.53,-5011.9,5668.98,2319.88,-4497.29,1.4,-293.86
20210515,12,10,2,2,0,24.647,25.726,1.079,10840.24,11314.81,474.57,0,0,474.57,4.38,0
20210515,47,19,10,3,1,66.302,66.956,0.654,22690.53,18347.05,-4343.48,4522.69,4141.27,-6223.41,0.99,-250.28
20210515,1,20,8,1,0,40.817,39.913,-0.904,10824.26,10584.53,-239.73,0,0,-239.73,-2.21,0
20210515,26,20,2,4,1,52.9,54.183,1.283,30122.32,28642.1,-1480.22,2158.43,2242.41,-2643.42,2.43,-217.88
20210515,31,19,2,3,0,39.396,39.117,-0.279,7346.57,7294.54,-52.03,0,0,-52.03,-0.71,0
20210515,47,19,4,3,1,39.142,42.732,3.59,13395.57,12416.47,-979.1,2022.23,3481.62,-3449.61,9.17,-199.08
20210515,7,3,3,1,0,13.729,13.27,-0.459,4944.64,4779.32,-165.32,0,0,-165.32,-3.34,0
20210515,47,12,2,1,1,24.485,25.751,1.266,18245.98,15376.11,-2869.87,3625.8,984.76,-2041.73,5.17,-307.33
20210515,35,7,6,1,0,53.147,53.509,0.362,27853.28,28043,189.72,0,0,189.72,0.68,0
20210515,12,3,7,1,1,52.313,56.247,3.934,52025.8,50070.02,-1955.78,5457.75,3902.28,-3129.19,7.52,-180.19
20210515,42,14,8,1,1,92.774,100.037,7.263,11825.9,11879.21,53.31,809.16,3483.62,-3025.73,7.83,-186.86
20210515,2,19,8,2,0,17.112,17.893,0.781,11186.8,11697.37,510.57,0,0,510.57,4.56,0
20210515,33,13,2,4,1,78.078,79.096,1.018,24064.42,23025.27,-1039.15,1335.49,2113.09,-2484.5,1.3,-217.58
20210615,8,16,2,2,1,48.995,51.048,2.053,7447.73,7280.99,-166.74,459.56,3762.18,-3699.14,4.19,-198.32
20210615,40,16,8,1,0,67.878,70.41,2.532,47490.84,49262.36,1771.52,0,0,1771.52,3.73,0
20210615,11,15,6,2,1,29.51,31.388,1.878,23562.26,22642.38,-919.88,2274.62,3181.99,-2964.56,6.36,-193.17
20210615,48,7,6,3,0,24.672,25.676,1.004,7359.41,7658.89,299.48,0,0,299.48,4.07,0
20210615,16,1,2,1,0,74.7,72.652,-2.048,36546.23,35544.26,-1001.97,0,0,-1001.97,-2.74,0
20210615,2,19,2,2,0,54.805,52.203,-2.602,35828.22,34127.19,-1701.03,0,0,-1701.03,-4.75,0
20210615,29,6,7,4,0,20.728,21.704,0.976,3061.11,3205.25,144.14,0,0,144.14,4.71,0
20210615,47,14,7,4,1,34.791,37.627,2.836,19127.05,18788.71,-338.34,1754.47,3221.04,-2682.14,8.15,-183.27
20210615,21,19,2,1,1,86.045,90.735,4.69,59474.3,53131.05,-6343.25,9089.54,3912.12,-5710.6,5.45,-245.97
20210615,41,11,6,2,0,85.085,88.784,3.699,8771.41,9152.74,381.33,0,0,381.33,4.35,0
20210615,3,12,7,1,1,75.636,79.431,3.795,21240.1,20006.74,-1233.36,2189.23,2990.08,-3128.82,5.02,-204.64
20210615,35,2,10,1,1,76.841,83.362,6.521,73188.75,73057.77,-130.98,5845.93,2760.03,31.95,8.49,-98.84
20210615,30,9,5,1,0,15.759,15.796,0.037,12300.06,12328.94,28.88,0,0,28.88,0.23,0
20210615,25,3,8,2,1,61.877,65.945,4.068,62420.9,57320.6,-5100.3,8636.27,3345.76,-4127.93,6.57,-223.38
20210615,7,17,2,4,1,23.51,23.671,0.161,6715.16,6232.08,-483.08,525.47,1910.94,-2131.28,0.68,-211.53
20210615,14,6,1,1,0,16.206,16.764,0.558,6918.67,7156.89,238.22,0,0,238.22,3.44,0
20210615,40,16,10,1,1,61.144,64.76,3.616,42779.4,41970.92,-808.48,3152,4178.58,-3411.06,5.91,-181.63
20210615,44,9,10,3,1,62.17,62.597,0.427,60132.07,53010.32,-7121.75,7483.36,1380.27,-4760.34,0.69,-444.88
20210615,35,16,10,3,0,83.646,86.739,3.093,42244.58,43806.66,1562.08,0,0,1562.08,3.7,0
20210615,12,3,2,1,0,53.083,54.422,1.339,52791.57,54123.22,1331.65,0,0,1331.65,2.52,0
20210615,30,9,3,1,1,28.178,29.421,1.243,21993.21,20117.45,-1875.76,2725.69,2095.17,-2608.08,4.41,-224.48
20210615,35,16,1,3,0,84.306,85.63,1.324,42577.9,43246.58,668.68,0,0,668.68,1.57,0
20210615,41,14,1,1,1,41.208,42.859,1.651,24350.22,23742.52,-607.7,1522.3,1100.71,-947.26,4.01,-186.06
20210615,29,12,10,2,1,32.723,34.259,1.536,26007.26,22914.74,-3092.52,4119.9,1032.95,-2065.52,4.69,-299.96
20210615,28,14,4,4,1,38.58,42.412,3.832,25641.81,24125.13,-1516.68,3696.43,3096.3,-2764.77,9.93,-189.29
20210615,12,3,10,1,1,18.263,18.809,0.546,18162.74,15116.66,-3046.08,3484.89,906.05,-2209.69,2.99,-343.88
20210615,45,7,2,2,1,64.521,70.674,6.153,33832.88,34731.5,898.62,2125.16,3977.01,-2015.81,9.54,-150.69
20210615,46,8,4,3,0,84.472,87.072,2.6,36990.29,38128.83,1138.54,0,0,1138.54,3.08,0
20210615,29,6,3,4,0,70.036,72.856,2.82,10342.92,10759.37,416.45,0,0,416.45,4.03,0
20210615,33,13,5,4,1,19.172,20.321,1.149,5909,5635.46,-273.54,592.19,3952.78,-3930.23,5.99,-199.43
20210615,46,16,1,2,1,75.457,80.577,5.12,54445.24,47873.55,-6571.69,9613.66,830.62,-2595.48,6.79,-412.48
20210615,11,17,9,4,1,66.873,67.343,0.47,60395.68,55175.53,-5220.15,5605.23,1426.02,-3843.56,0.7,-369.53
20210615,30,2,8,3,1,52.089,52.992,0.903,34382.91,30854.42,-3528.49,4054.26,4745.1,-6246.46,1.73,-231.64
20210615,8,16,6,2,0,43.61,45.084,1.474,6629.16,6853.22,224.06,0,0,224.06,3.38,0
20210615,47,14,10,4,0,84.324,88.374,4.05,46358.81,48585.37,2226.56,0,0,2226.56,4.8,0
20210615,25,5,6,4,1,72.452,72.972,0.52,57621.08,55097.31,-2523.77,2916.39,4294.59,-5360.17,0.72,-224.81
20210615,16,7,1,1,1,86.864,91.814,4.95,46984.74,41530.28,-5454.46,7693.49,3662.35,-5270.06,5.7,-243.9
20210615,23,1,7,1,1,18.293,19.581,1.288,4789.29,4820.53,31.24,285.85,1631.31,-1457.14,7.04,-189.32
20210615,13,8,1,1,0,83.546,86.104,2.558,29658.83,30566.92,908.09,0,0,908.09,3.06,0
20210615,2,12,6,2,1,42.323,45.325,3.002,40154.37,36788.09,-3366.28,5802.86,1649.56,-2114.41,7.09,-228.18
20210615,25,5,8,4,1,35.929,36.402,0.473,28574.33,25433.01,-3141.32,3471.8,3850.31,-5255.73,1.32,-236.5
20210615,12,3,7,1,1,88.875,95.529,6.654,88387.08,77272.13,-11114.95,16497.27,672.83,-3539.15,7.49,-626.01
20210615,33,13,7,4,1,33.038,34.478,1.44,10182.64,8616.74,-1565.9,1925.78,3694.17,-4297.18,4.36,-216.32
20210615,13,2,7,4,1,86.959,91.723,4.764,43425.59,37246.56,-6179.03,8113.57,4078.81,-6201.06,5.48,-252.03
20210615,42,14,3,1,1,53.056,57.744,4.688,6763.05,6030.22,-732.83,1222.4,1784.62,-1906.25,8.84,-206.82
20210615,40,16,6,1,0,43.539,41.494,-2.045,30462.06,29031.28,-1430.78,0,0,-1430.78,-4.7,0
20210615,11,10,9,1,1,84.659,87.409,2.75,48126.1,44702.43,-3423.67,4830.07,4814.91,-5823.54,3.25,-220.95
20210615,16,1,7,1,1,67.355,68.708,1.353,32952.76,31267.73,-1685.03,2300.76,4167.84,-4702.49,2.01,-212.83
20210615,47,14,1,4,0,49.295,47.208,-2.087,27100.91,25953.54,-1147.37,0,0,-1147.37,-4.23,0
20210615,8,1,8,1,1,60.265,61.283,1.018,55364.85,52281.11,-3083.74,3952.2,4602.05,-5709.69,1.69,-224.07
20210615,47,12,5,4,0,31.854,30.465,-1.389,22763.82,21771.2,-992.62,0,0,-992.62,-4.36,0
20210615,42,8,10,1,1,34.314,36.111,1.797,20022.56,19582.95,-439.61,1414.12,4906.96,-4639.51,5.24,-194.55
20210615,44,3,1,1,1,48.459,49.902,1.443,27409.86,22865.99,-4543.87,5205.08,3867.02,-5808.35,2.98,-250.2
20210615,16,7,8,1,0,81.172,82.529,1.357,43905.93,44639.94,734.01,0,0,734.01,1.67,0
20210615,41,19,10,1,1,71.908,76.934,5.026,60525.68,55347.92,-5177.76,8793.57,3750.6,-4531.58,6.99,-220.82
20210615,30,2,10,3,1,23.099,25.174,2.075,15247.19,15332.78,85.59,1178.23,858.67,-183.96,8.98,-121.42
20210615,29,12,7,2,1,25.061,26.755,1.694,19917.73,19820.13,-97.6,1352.52,4430.97,-3852.31,6.76,-186.94
20210615,29,12,9,2,0,45.947,47.548,1.601,36517.3,37789.72,1272.42,0,0,1272.42,3.48,0
20210615,34,14,10,1,1,48.306,51.644,3.338,20606.86,20767.99,161.13,1181.2,4745.56,-3993.83,6.91,-184.16
20210615,42,8,3,1,0,48.804,47.612,-1.192,28477.62,27782.08,-695.54,0,0,-695.54,-2.44,0
20210615,4,10,7,1,0,69.863,70.223,0.36,26420.79,26556.93,136.14,0,0,136.14,0.52,0
20210615,9,1,9,2,1,43.707,47.057,3.35,20140.19,17852.07,-2288.12,3559.01,2445.56,-2954.18,7.66,-220.8
20210615,32,13,9,1,0,98.105,93.508,-4.597,89220.61,85039.92,-4180.69,0,0,-4180.69,-4.69,0
20210615,40,16,9,1,0,63.618,64.023,0.405,44510.33,44793.69,283.36,0,0,283.36,0.64,0
20210615,16,1,3,1,1,42.101,45.291,3.19,20597.49,20723.43,125.94,1333.69,3012.55,-2219.77,7.58,-173.68
20210615,3,12,4,1,0,54.527,56.304,1.777,15312.27,15811.29,499.02,0,0,499.02,3.26,0
20210615,50,6,4,3,0,80.239,78.391,-1.848,70913.62,69280.4,-1633.22,0,0,-1633.22,-2.3,0
20210615,3,12,7,1,0,39.585,39.987,0.402,11116.26,11229.15,112.89,0,0,112.89,1.02,0
20210615,10,14,2,3,0,58.016,57.125,-0.891,44500.01,43816.59,-683.42,0,0,-683.42,-1.54,0
20210615,6,6,5,2,1,47.282,51.943,4.661,7153.77,6526.28,-627.49,1213.11,1245.36,-1266.3,9.86,-201.68
20210615,47,12,2,1,1,96.616,105.427,8.811,71997.28,74176.27,2178.99,4020.25,4787.86,-598.74,9.12,-112.51
20210615,29,12,5,2,0,87.11,89.035,1.925,69232.41,70762.35,1529.94,0,0,1529.94,2.21,0
20210615,17,20,1,2,1,91.474,100.069,8.595,45821.16,42456.91,-3364.25,7010.9,558.69,-417.49,9.4,-174.73
20210615,41,19,5,1,0,67.89,67.944,0.054,57143.69,57189.14,45.45,0,0,45.45,0.08,0
20210615,9,1,10,2,0,29.603,29.705,0.102,13641.06,13688.06,47,0,0,47,0.34,0
20210615,31,8,5,4,0,35.76,35.717,-0.043,27251.62,27218.85,-32.77,0,0,-32.77,-0.12,0
20210615,11,17,1,4,0,18.593,18.435,-0.158,16792.08,16649.39,-142.69,0,0,-142.69,-0.85,0
20210615,11,5,6,2,0,59.258,57.938,-1.32,11797.08,11534.3,-262.78,0,0,-262.78,-2.23,0
20210615,46,8,2,3,1,67.765,68.387,0.622,29674.29,24602.6,-5071.69,5295.46,3290.72,-5714.68,0.92,-273.66
20210615,16,1,8,1,1,77.828,84.687,6.859,38076.57,36116.63,-1959.94,4885.12,2260.85,-1778.23,8.81,-178.65
20210615,40,16,3,1,1,16.031,16.707,0.676,11216.09,9978.18,-1237.91,1641.65,1803.39,-2220.48,4.22,-223.13
20210615,24,19,10,4,1,81.951,85.014,3.063,13997.23,13723.86,-273.37,767.83,4462.78,-4352.23,3.74,-197.52
20210615,2,9,3,2,1,77.157,79.546,2.389,14497.8,13646.11,-851.69,1261.52,2525.42,-2746.35,3.1,-208.75
20210615,42,14,5,1,1,81.218,88.682,7.464,10352.86,10239.59,-113.27,975.09,523.17,-148.89,9.19,-128.46
20210615,32,13,3,1,0,51.947,49.456,-2.491,47242.68,44977.26,-2265.42,0,0,-2265.42,-4.8,0
20210615,11,17,1,4,0,70.817,69.776,-1.041,63957.67,63017.5,-940.17,0,0,-940.17,-1.47,0
20210615,8,16,2,2,0,22.407,21.955,-0.452,3406.09,3337.38,-68.71,0,0,-68.71,-2.02,0
20210615,21,19,1,1,0,79.281,80.892,1.611,54799.03,55912.55,1113.52,0,0,1113.52,2.03,0
20210615,13,8,5,1,0,60.233,60.473,0.24,21382.72,21467.92,85.2,0,0,85.2,0.4,0
20210615,41,11,1,2,1,44.735,48.157,3.422,4611.73,4317.89,-293.84,600.67,4932.09,-4925.6,7.65,-199.87
20210715,11,5,6,2,1,37.065,39.087,2.022,7378.9,6309.2,-1069.7,1396.08,2875.98,-3247.64,5.46,-212.92
20210715,41,14,5,1,1,96.888,103.327,6.439,57252.09,51522.26,-5729.83,8940.52,4481.89,-5741.46,6.65,-228.1
20210715,43,5,5,4,1,14.41,14.916,0.506,9148.19,8307.03,-841.16,1122.96,4821.53,-5101.21,3.51,-205.8
20210715,16,7,1,1,1,66.861,70.698,3.837,36165.11,30694.51,-5470.6,7136.49,2410.14,-4312.5,5.74,-278.93
20210715,47,19,5,3,0,66.417,67.369,0.952,22729.89,23055.69,325.8,0,0,325.8,1.43,0
20210715,13,8,2,1,1,11.398,12.501,1.103,4046.29,4131.65,85.36,279.19,2503.27,-2278.32,9.68,-191.01
20210715,16,6,7,4,0,72.454,72.081,-0.373,37531.17,37337.96,-193.21,0,0,-193.21,-0.51,0
20210715,13,2,1,4,0,80,76.2,-3.8,39950.4,38052.76,-1897.64,0,0,-1897.64,-4.75,0
20210715,45,7,2,2,1,76.312,82.427,6.115,40015.72,40755.68,739.96,2283.58,3625.75,-1744,8.01,-148.1
20210715,45,7,6,2,0,43.743,44.249,0.506,22937.52,23202.85,265.33,0,0,265.33,1.16,0
20210715,14,4,6,2,1,20.865,22.885,2.02,13355.27,13629.68,274.41,928.65,3318.15,-2579.42,9.68,-177.74
20210715,12,3,3,1,1,32.532,35.674,3.142,32353.4,32526.12,172.72,2692.03,2830.94,-1312.21,9.66,-146.35
20210715,4,10,3,1,0,77.285,74.648,-2.637,29227.64,28230.38,-997.26,0,0,-997.26,-3.41,0
20210715,46,8,8,3,1,87.268,93.91,6.642,38214.66,33665.24,-4549.42,6930.47,4029.57,-5113.75,7.61,-226.91
20210715,47,19,8,3,1,12.244,12.829,0.585,4190.26,3550.36,-639.9,801.8,4240.33,-4479.33,4.78,-205.64
20210715,43,5,4,4,1,40.33,41.104,0.774,25603.5,24327.59,-1275.91,1734,1771.07,-2179.98,1.92,-223.09
20210715,26,10,3,3,0,30.96,29.995,-0.965,27785.98,26919.91,-866.07,0,0,-866.07,-3.12,0
20210715,49,17,8,3,1,32.151,34.747,2.596,29844.17,30493.93,649.76,1628.48,1517.7,-53.7,8.07,-103.54
20210715,44,3,7,1,0,99.734,103.685,3.951,56412.54,58647.35,2234.81,0,0,2234.81,3.96,0
20210715,20,13,4,1,1,82.812,88.343,5.531,38692.25,34744.65,-3947.6,6122.91,3552.57,-4438.72,6.68,-224.94
20210715,24,19,6,4,1,30.545,30.684,0.139,5217.09,4605.53,-611.56,632.42,1892.2,-2187.55,0.46,-215.61
20210715,34,14,6,1,0,18.989,19.517,0.528,8100.52,8325.76,225.24,0,0,225.24,2.78,0
20210715,31,14,6,4,1,89.833,96.771,6.938,69775.09,67382.74,-2392.35,7223.36,3593.94,-2374.61,7.72,-166.07
20210715,17,11,6,3,0,32.281,31.269,-1.012,10520.06,10190.25,-329.81,0,0,-329.81,-3.13,0
20210715,44,9,2,3,0,89.111,93.29,4.179,86189.94,90231.95,4042.01,0,0,4042.01,4.69,0
20210715,14,4,6,2,1,99.612,103.971,4.359,63759.65,59052.8,-4706.85,7182.65,3639.7,-4755.22,4.38,-230.65
20210715,13,8,1,1,1,20.259,21.038,0.779,7191.94,6878.55,-313.39,568.1,1940.72,-1970.06,3.85,-201.51
20210715,31,19,10,3,0,33.725,32.148,-1.577,6289.04,5994.96,-294.08,0,0,-294.08,-4.68,0
20210715,50,20,4,2,1,31.584,34.065,2.481,27300.58,23624.36,-3676.22,5396.81,2407.17,-3384.98,7.86,-240.62
20210715,31,19,4,3,0,96.692,93.936,-2.756,18031.12,17517.19,-513.93,0,0,-513.93,-2.85,0
20210715,10,16,9,1,1,12.909,13.322,0.413,1804.16,1760.2,-43.96,98.53,4833.21,-4827.9,3.2,-199.89
20210715,41,11,4,2,1,50.035,53.87,3.835,5158.11,4792.99,-365.12,706.33,3541.44,-3553.4,7.66,-200.34
20210715,47,19,4,3,0,10.252,10.315,0.063,3508.54,3530.1,21.56,0,0,21.56,0.61,0
20210715,35,16,1,3,1,79.139,81.015,1.876,39968.36,33683.85,-6284.51,7064.5,1293.44,-4045.7,2.37,-412.79
20210715,21,19,9,1,0,17.923,18.459,0.536,12388.38,12758.86,370.48,0,0,370.48,2.99,0
20210715,50,16,2,1,0,38.019,38.404,0.385,18535.78,18723.49,187.71,0,0,187.71,1.01,0
20210715,9,1,7,2,1,13.151,13.707,0.556,6059.98,5121.81,-938.17,1145.93,4799.66,-5164.86,4.23,-207.61
20210715,1,13,10,4,0,19.553,18.872,-0.681,13000.79,12547.99,-452.8,0,0,-452.8,-3.48,0
20210715,49,18,2,2,0,68.64,65.747,-2.893,58059.83,55612.76,-2447.07,0,0,-2447.07,-4.21,0
20210715,30,2,7,3,1,72.131,74.276,2.145,47612.23,43666.69,-3945.54,5206.58,3354.83,-4697.08,2.97,-240.01
20210715,31,8,5,4,0,40.504,42.11,1.606,30866.88,32090.77,1223.89,0,0,1223.89,3.97,0
20210715,17,11,9,3,1,32.547,33.289,0.742,10606.74,9045.88,-1560.86,1762.49,4252.07,-4931.68,2.28,-215.98
20210715,46,16,6,2,1,77.753,84.565,6.812,56101.9,57178.58,1076.68,3529.25,3895.82,-1054.52,8.76,-127.07
20210715,30,2,7,3,0,97.421,94.465,-2.956,64305.65,62354.46,-1951.19,0,0,-1951.19,-3.03,0
20210715,39,14,7,4,0,35.15,35.314,0.164,17463.57,17545.05,81.48,0,0,81.48,0.47,0
20210715,16,1,5,1,1,22.373,24.116,1.743,10945.77,9898.68,-1047.09,1762.52,1390.03,-1555.86,7.79,-211.93
20210715,47,19,9,3,0,51.539,51.141,-0.398,17638.19,17501.98,-136.21,0,0,-136.21,-0.77,0
20210715,35,2,1,1,1,41.707,42.276,0.569,39724.67,32422,-7302.67,7739.04,3478.92,-6912.07,1.36,-298.68
20210715,42,8,5,1,0,25.205,25.962,0.757,14707.37,15149.09,441.72,0,0,441.72,3,0
20210715,45,14,7,4,0,63.634,63.37,-0.264,49402.26,49197.3,-204.96,0,0,-204.96,-0.41,0
20210715,40,16,8,1,1,55.942,59.305,3.363,39139.82,39150.97,11.15,2208.97,2602.3,-1486.67,6.01,-157.13
20210715,31,14,9,4,0,41.798,41.804,0.006,32465.34,32470,4.66,0,0,4.66,0.01,0
20210715,40,11,10,3,1,35.281,36.832,1.551,6139.25,5393.49,-745.76,972.88,4366.22,-4625.54,4.4,-205.94
20210715,42,8,2,1,1,16.175,16.413,0.238,9438.27,8945.02,-493.25,622.96,3354.57,-3536.34,1.47,-205.42
20210715,21,19,2,1,0,42.944,43.603,0.659,29682.89,30138.39,455.5,0,0,455.5,1.53,0
20210715,47,14,2,4,0,70.112,70.442,0.33,38545.47,38726.9,181.43,0,0,181.43,0.47,0
20210715,43,5,5,4,1,14.56,14.945,0.385,9243.42,8521.03,-722.39,941.89,1717.78,-1969.22,2.64,-214.64
20210715,34,14,4,1,1,36.216,36.513,0.297,15449.38,14004.39,-1444.99,1558.91,1619.65,-2285.19,0.82,-241.09
20210715,40,16,2,1,1,20.768,21.93,1.162,14530.33,12989.57,-1540.76,2229.03,2841.64,-3267.88,5.6,-215
20210715,47,14,6,4,0,53.927,53.225,-0.702,29647.45,29261.51,-385.94,0,0,-385.94,-1.3,0
20210715,25,3,5,2,0,50.779,51.157,0.378,51225.35,51606.67,381.32,0,0,381.32,0.74,0
20210715,35,2,10,1,0,93.249,89.287,-3.962,88816.88,85043.19,-3773.69,0,0,-3773.69,-4.25,0
20210715,11,10,9,1,1,57.119,62.597,5.478,32470.44,30161.23,-2309.21,4948.68,2514.77,-2349.64,9.59,-193.43
20210715,14,4,6,2,0,88.302,90.326,2.024,56520.34,57815.87,1295.53,0,0,1295.53,2.29,0
20210715,12,10,10,2,1,29.414,32.108,2.694,12936.87,13055.02,118.15,977.22,776.51,-169.75,9.16,-121.86
20210715,42,14,1,1,0,85.927,89.48,3.553,10953.11,11406.02,452.91,0,0,452.91,4.13,0
20210715,38,9,10,4,0,78.419,81.054,2.635,38155.55,39437.63,1282.08,0,0,1282.08,3.36,0
20210715,23,1,10,1,0,32.68,33.696,1.016,8555.95,8821.95,266,0,0,266,3.11,0
20210715,7,17,7,4,0,34.43,33.91,-0.52,9834.24,9685.71,-148.53,0,0,-148.53,-1.51,0
20210715,32,3,4,3,0,95.693,100.092,4.399,75790.77,79274.87,3484.1,0,0,3484.1,4.6,0
20210715,25,12,10,4,1,83.925,87.855,3.93,57454.22,48152.28,-9301.94,11455.93,4596.73,-8170.7,4.68,-277.75
20210715,2,9,6,2,0,50.185,49.194,-0.991,9429.76,9243.55,-186.21,0,0,-186.21,-1.97,0
20210715,42,8,5,1,0,99.99,100.769,0.779,58345.16,58799.72,454.56,0,0,454.56,0.78,0
20210715,20,5,8,2,0,34.958,36.629,1.671,8307.07,8704.15,397.08,0,0,397.08,4.78,0
20210715,50,13,10,2,0,96.956,100.624,3.668,27902.97,28958.58,1055.61,0,0,1055.61,3.78,0
20210715,8,1,2,1,1,43.455,44.914,1.459,39921.67,37917.69,-2003.98,3235.71,910.08,-1296.2,3.36,-242.43
20210715,16,18,5,1,0,43.634,41.59,-2.044,24868.76,23703.8,-1164.96,0,0,-1164.96,-4.68,0
20210715,3,12,10,1,0,60.07,61.223,1.153,16868.86,17192.64,323.78,0,0,323.78,1.92,0
20210715,41,11,4,2,1,20.623,21.718,1.095,2126.03,1933.22,-192.81,290.27,3569.16,-3616.84,5.31,-201.34
20210715,32,3,6,3,0,18.828,18.467,-0.361,14912.15,14626.23,-285.92,0,0,-285.92,-1.92,0
20210715,1,20,7,1,0,47.097,48.284,1.187,12489.65,12804.43,314.78,0,0,314.78,2.52,0
20210715,13,12,6,2,0,93.959,91.542,-2.417,18668.71,18188.48,-480.23,0,0,-480.23,-2.57,0
20210715,42,15,4,3,0,41.631,39.722,-1.909,26478.56,25264.38,-1214.18,0,0,-1214.18,-4.59,0
20210715,9,1,10,2,1,23.408,25.391,1.983,10786.41,9477.57,-1308.84,2049.02,4707.63,-4991.96,8.47,-206.04
20210715,26,10,4,3,0,71.242,70.442,-0.8,63938.27,63220.29,-717.98,0,0,-717.98,-1.12,0
20210715,16,7,4,1,0,78.124,80.479,2.355,42257.27,43531.09,1273.82,0,0,1273.82,3.01,0
20210715,10,14,1,3,1,59.355,62.844,3.489,45527.07,39237.65,-6289.42,8467.83,1615.87,-3671.38,5.88,-327.21
20210715,40,11,7,3,0,37.6,37.194,-0.406,6542.78,6472.13,-70.65,0,0,-70.65,-1.08,0
20210715,3,12,7,1,1,43.385,44.047,0.662,12183.38,10439.09,-1744.29,1901.18,2202.96,-2996.66,1.53,-236.03
20210715,44,13,9,4,0,34.935,34.547,-0.388,14601.08,14438.92,-162.16,0,0,-162.16,-1.11,0
20210815,1,20,4,1,1,43.959,46.556,2.597,11657.49,10610.89,-1046.6,1638.5,3432.49,-3659.84,5.91,-206.62
20210815,17,11,5,3,1,97.986,104.581,6.595,31932.66,27639.17,-4293.49,6036.45,2985.63,-4260.9,6.73,-242.71
20210815,23,1,8,1,1,88.409,93.364,4.955,23146.36,19576.5,-3569.86,4608.82,501.77,-1767.22,5.6,-452.2
20210815,20,5,8,2,0,91.849,96.362,4.513,21826.08,22898.5,1072.42,0,0,1072.42,4.91,0
20210815,49,18,10,2,1,67.055,72.208,5.153,56719.14,50236.68,-6482.46,10067.52,3907.82,-5356.52,7.68,-237.07
20210815,50,16,2,1,1,26.611,26.628,0.017,12973.93,11125.92,-1848.01,1855.11,612.18,-1532.64,0.06,-350.36
20210815,26,20,7,4,1,49.011,49.592,0.581,27907.84,23846.22,-4061.62,4341,825.52,-2716.64,1.19,-429.08
20210815,34,14,8,1,1,64.206,66.426,2.22,27389.64,24445.58,-2944.06,3761.05,2159.49,-3223.02,3.46,-249.25
20210815,16,7,7,1,1,32.322,33.518,1.196,17482.97,16466.17,-1016.8,1604.36,3763.91,-3978.53,3.7,-205.7
20210815,20,13,3,1,0,37.784,36.901,-0.883,17653.82,17241.25,-412.57,0,0,-412.57,-2.34,0
20210815,16,1,7,1,1,90.739,93.806,3.067,44393.15,40010.43,-4382.72,5690.87,897.6,-2434.89,3.38,-371.27
20210815,24,19,9,4,1,21.309,22.851,1.542,3639.58,3497.96,-141.62,377.66,4608.09,-4560.88,7.24,-198.98
20210815,50,16,7,1,1,82.68,84.459,1.779,40309.81,33656.77,-6653.04,7361.96,1160.9,-4132.96,2.15,-456.01
20210815,35,16,7,3,0,72.086,71.615,-0.471,36406.31,36168.44,-237.87,0,0,-237.87,-0.65,0
20210815,40,16,8,1,1,60.588,61.898,1.31,42390.39,39867.55,-2522.84,3366.59,3575.28,-4414.83,2.16,-223.48
20210815,11,10,3,1,1,25.069,25.233,0.164,14250.97,12515.81,-1735.16,1816.51,889.8,-1716.7,0.65,-292.93
20210815,14,6,8,1,0,44.085,42.192,-1.893,18820.77,18012.61,-808.16,0,0,-808.16,-4.29,0
20210815,1,13,7,4,1,94.099,101.234,7.135,62566.43,56678.69,-5887.74,9882.46,1423.04,-2369.55,7.58,-266.51
20210815,6,6,8,2,1,30.095,32.828,2.733,4553.37,4554.67,1.3,377.88,4963.83,-4773.59,9.08,-196.17
20210815,16,1,8,1,0,89.396,93.346,3.95,43736.1,45668.6,1932.5,0,0,1932.5,4.42,0
20210815,31,14,7,4,1,11.019,12.036,1.017,8558.68,7923.5,-635.18,1304.69,4187.95,-4170.78,9.23,-199.59
20210815,41,19,7,1,1,90.858,94.308,3.45,76476.09,64535.49,-11940.6,14301.45,1078.58,-5868.46,3.8,-644.09
20210815,31,19,4,1,1,13.251,14.257,1.006,6244.67,6344.93,100.26,347.45,4219.66,-3945.68,7.59,-193.51
20210815,32,3,5,3,0,12.545,12.442,-0.103,9935.89,9854.31,-81.58,0,0,-81.58,-0.82,0
20210815,2,12,5,2,1,68.675,73.924,5.249,65156.09,56976.56,-8179.53,12225.18,1343.35,-3410.29,7.64,-353.86
20210815,24,19,7,4,0,77.725,81.177,3.452,13275.43,13865.03,589.6,0,0,589.6,4.44,0
20210815,29,12,7,2,1,72.891,77.605,4.714,57931.58,55780.73,-2150.85,5539.17,4739,-4120.27,6.47,-186.94
20210815,50,6,9,3,0,43.267,43.423,0.156,38238.51,38376.38,137.87,0,0,137.87,0.36,0
20210815,40,16,8,1,0,79.703,80.395,0.692,55764.2,56248.36,484.16,0,0,484.16,0.87,0
20210815,40,11,4,3,0,35.722,33.953,-1.769,6215.99,5908.16,-307.83,0,0,-307.83,-4.95,0
20210815,39,14,9,4,1,94.629,103.131,8.502,47014.53,46436.8,-577.73,4405.92,2509.16,-883.93,8.98,-135.23
20210815,50,6,5,3,0,55.799,57.276,1.477,49314.04,50619.38,1305.34,0,0,1305.34,2.65,0
20210815,44,9,4,3,1,59.838,61.142,1.304,57876.51,55203.25,-2673.26,3850.6,2478.37,-3226.33,2.18,-230.18
20210815,28,14,10,4,0,47.533,47.379,-0.154,31592.33,31489.98,-102.35,0,0,-102.35,-0.32,0
20210815,46,16,5,2,1,15.954,17.167,1.213,11511.45,11312.77,-198.68,998.02,1685.8,-1385.47,7.6,-182.18
20210815,13,20,4,1,0,95.306,97.296,1.99,43410.93,44317.36,906.43,0,0,906.43,2.09,0
20210815,11,10,1,1,0,62.511,63.704,1.193,35535.63,36213.81,678.18,0,0,678.18,1.91,0
20210815,47,12,5,1,1,81.585,89.629,8.044,60796.33,63278.48,2482.15,3196.95,2645.99,1434.64,9.86,-45.78
20210815,13,12,8,2,1,90.225,96.315,6.09,17926.81,17200.44,-726.37,1813.95,3300.21,-3119.6,6.75,-194.53
20210815,20,5,8,2,0,67.902,66.256,-1.646,16135.55,15744.41,-391.14,0,0,-391.14,-2.42,0
20210815,30,2,9,3,0,44.292,44.004,-0.288,29236.26,29046.16,-190.1,0,0,-190.1,-0.65,0
20210815,11,15,4,2,0,98.99,99.822,0.832,79038.57,79702.88,664.31,0,0,664.31,0.84,0
20210815,11,15,2,2,1,64.214,65.466,1.252,51271.67,47427.89,-3843.78,4750.81,2603.58,-4071.96,1.95,-256.4
20210815,7,17,4,4,1,83.615,86.126,2.511,23882.95,20560.59,-3322.36,3921.8,3842.3,-5203.76,3,-235.43
20210815,14,8,1,1,0,15.371,14.954,-0.417,10083.68,9810.12,-273.56,0,0,-273.56,-2.71,0
20210815,45,7,2,2,0,22.195,22.957,0.762,11638.39,12037.96,399.57,0,0,399.57,3.43,0
20210815,14,6,3,1,1,38.055,41.198,3.143,16246.44,15414.3,-832.14,2008.1,3299.25,-3127.34,8.26,-194.79
20210815,33,13,4,4,1,79.909,83.046,3.137,24628.75,22530.3,-2098.45,2949.51,3382.78,-4006.47,3.93,-218.44
20210815,12,10,1,2,0,10.19,10.185,-0.005,4481.77,4479.57,-2.2,0,0,-2.2,-0.05,0
20210815,10,16,1,1,0,86.158,83.759,-2.399,12041.44,11706.16,-335.28,0,0,-335.28,-2.78,0
20210815,13,12,10,2,1,35.361,37.018,1.657,7025.88,5888.52,-1137.36,1400.94,3819.72,-4256.61,4.69,-211.44
20210815,40,16,6,1,1,21.148,23.051,1.903,14796.2,14868.92,72.72,1154.8,1668.01,-1017.89,9,-161.02
20210815,42,14,5,1,1,30.652,30.718,0.066,3907.21,3690.72,-216.49,224.42,2043.95,-2148.23,0.22,-205.1
20210815,41,11,1,2,1,17.794,18.108,0.314,1834.38,1607.85,-226.53,254.41,2054.45,-2153.78,1.76,-204.83
20210815,44,3,6,1,1,42.621,45.08,2.459,24107.72,21337.17,-2770.55,3934.44,1383.91,-2187.24,5.77,-258.05
20210815,44,13,9,4,0,57.602,57.287,-0.315,24074.76,23943.1,-131.66,0,0,-131.66,-0.55,0
20210815,24,19,8,4,0,52.824,50.704,-2.12,9022.34,8660.24,-362.1,0,0,-362.1,-4.01,0
20210815,2,9,10,2,0,66.391,67.081,0.69,12474.87,12604.52,129.65,0,0,129.65,1.04,0
20210815,7,17,1,4,0,94.267,95.44,1.173,26925.48,27260.53,335.05,0,0,335.05,1.24,0
20210815,8,16,6,2,1,50.098,54.271,4.173,7615.4,7227.09,-388.31,944.01,659.58,-575.89,8.33,-187.31
20210815,50,20,1,2,0,27.903,27.783,-0.12,24118.8,24015.07,-103.73,0,0,-103.73,-0.43,0
20210815,2,9,6,2,1,35.87,36.54,0.67,6739.97,5648.08,-1091.89,1195.45,1405.31,-1899.48,1.87,-235.16
20210815,38,9,10,4,1,75.768,82.329,6.561,36865.68,32585.6,-4280.08,6876.91,1035.09,-1876.72,8.66,-281.31
20210815,42,15,3,3,0,45.249,46.703,1.454,28779.72,29704.51,924.79,0,0,924.79,3.21,0
20210815,32,3,9,3,0,33.218,33.303,0.085,26309.32,26376.64,67.32,0,0,67.32,0.26,0
20210815,47,19,4,3,0,34.147,34.518,0.371,11686.13,11813.1,126.97,0,0,126.97,1.09,0
20210815,7,3,3,1,1,23.617,25.395,1.778,8505.9,7959.33,-546.57,1103.83,3170.7,-3165.36,7.53,-199.83
20210815,13,8,5,1,1,73.874,76.305,2.431,26225.27,21801.07,-4424.2,5118.76,1915.75,-3780.57,3.29,-297.34
20210815,44,9,6,3,0,17.244,16.52,-0.724,16678.74,15978.47,-700.27,0,0,-700.27,-4.2,0
20210815,1,13,4,4,1,51.467,55.221,3.754,34220.41,33062.08,-1158.33,3405.93,4782.07,-4237.43,7.29,-188.61
20210815,35,16,6,3,1,25.987,27.754,1.767,13124.47,12608.02,-516.45,1319.16,3783.09,-3639.96,6.8,-196.22
20210815,46,8,4,3,1,85.705,88.056,2.351,37530.22,36194.58,-1335.64,2302,625.95,-810.59,2.74,-229.5
20210815,13,12,7,2,1,30.145,31.223,1.078,5989.51,5038.89,-950.62,1124.59,2065.85,-2454.17,3.58,-218.8
20210815,44,9,2,3,1,59.419,60.731,1.312,57471.25,51774.93,-5696.32,6814.84,3175.29,-5464.19,2.21,-272.08
20210815,32,3,1,3,1,43.609,47.326,3.717,34539.2,32367.38,-2171.82,4713.96,696.46,-511.3,8.52,-173.41
20210815,2,9,5,2,1,50.953,51.356,0.403,9574.07,8413.94,-1160.13,1226.16,1638.79,-2185.84,0.79,-233.38
20210815,25,5,8,4,1,71.619,75.908,4.289,56958.59,51642.64,-5315.95,8233.89,833.88,-2032.89,5.99,-343.79
20210815,20,5,4,2,0,95.73,95.902,0.172,22748.32,22789.19,40.87,0,0,40.87,0.18,0
20210815,50,16,9,1,1,40.467,43.579,3.112,19729.28,17315.28,-2414,3650.49,3790.22,-4378.97,7.69,-215.53
20210815,14,6,10,1,1,81.553,82.942,1.389,34816.61,31124.59,-3692.02,4213.25,1652.56,-3237.96,1.7,-295.94
20210815,1,13,7,4,0,61.051,64.003,2.952,40592.81,42555.59,1962.78,0,0,1962.78,4.84,0
20210815,50,20,7,2,1,37.547,39.89,2.343,32454.88,31120.35,-1334.53,3162.42,1392.16,-1145.48,6.24,-182.28
20210815,43,5,1,4,1,62.89,65.487,2.597,39925.72,35201.91,-4723.81,6119.8,3586.17,-5250.08,4.13,-246.4
20210815,47,12,3,4,1,55.287,56.8,1.513,39509.75,36945.76,-2563.99,3548.13,3786.28,-4576.2,2.74,-220.86
20210815,20,13,5,1,0,44.499,43.396,-1.103,20791.27,20275.91,-515.36,0,0,-515.36,-2.48,0
20210815,30,2,8,3,0,14.886,15.385,0.499,9825.95,10155.33,329.38,0,0,329.38,3.35,0
20210815,25,12,4,4,1,90.39,97.948,7.558,61880.09,59750.42,-2129.67,6740.22,2306.1,-1065.66,8.36,-146.21
20210815,2,19,4,2,1,74.947,77.76,2.813,48995.85,47947.59,-1048.26,2782.79,2965.95,-2622.82,3.75,-188.43
20210815,35,2,8,1,1,14.974,16.017,1.043,14262.29,14046.83,-215.46,1130.16,823.07,-473.45,6.97,-157.52
20210815,25,3,1,2,1,13.468,14.095,0.627,13586.38,11950.3,-1636.08,2167.68,2936.68,-3488.92,4.66,-218.8
20210915,42,15,3,3,1,73.811,117.694,43.883,46946.01,64792.85,17846.84,6311.61,4233.45,16769.2,59.45,296.11
20210915,14,6,1,1,1,56.648,85.376,28.728,24184.16,33683.07,9498.91,1835.04,3263.65,7152.78,50.71,119.17
20210915,6,6,3,2,0,83.161,86.395,3.234,12582.26,13071.56,489.3,0,0,489.3,3.89,0
20210915,14,8,9,1,1,98.105,131.283,33.178,64358.84,74979.31,10620.47,8328.4,3560.32,11224.35,33.82,215.26
20210915,41,11,1,2,1,59.4,85.44,26.04,6123.55,8167.79,2044.24,445.1,1027.07,1239.72,43.84,20.7
20210915,30,2,5,3,1,30.672,40.083,9.411,20245.97,21782.69,1536.72,3577.6,671.35,2654.17,30.68,295.35
20210915,26,20,1,4,1,96.258,132.221,35.963,54811.23,67136.85,12325.62,5935.04,4485.78,10807.36,37.36,140.92
20210915,9,1,2,2,1,96.387,132.466,36.079,44415.13,51360.81,6945.68,7043.16,3808.2,6659.06,37.43,74.86
20210915,50,20,5,2,1,27.49,43.97,16.48,23761.81,34314.1,10552.29,2308.67,3322.77,8383.86,59.95,152.32
20210915,50,13,9,2,1,51.275,68.849,17.574,14756.43,16536.42,1779.99,2441.01,1417.24,1583.26,34.27,11.71
20210915,25,3,9,2,1,41.587,58.37,16.783,41952.55,51143.97,9191.42,5513.89,2353.86,9594.5,40.36,307.61
20210915,45,14,5,4,0,63.128,62.915,-0.213,49009.42,48844.06,-165.36,0,0,-165.36,-0.34,0
20210915,30,9,10,1,0,17.048,16.984,-0.064,13306.13,13256.18,-49.95,0,0,-49.95,-0.38,0
20210915,30,9,10,1,1,26.025,36.944,10.919,20312.77,24675.91,4363.14,2929.96,4143.02,1685.1,41.96,-59.33
20210915,16,7,1,1,1,17.235,23.494,6.259,9322.41,11354.59,2032.18,992.78,3802.56,-1273.99,36.32,-133.5
20210915,41,11,3,2,0,98.779,101.371,2.592,10183.13,10450.34,267.21,0,0,267.21,2.62,0
20210915,16,18,3,1,1,14.714,19.514,4.8,8386.1,10238.49,1852.39,666.04,4812.97,-2627.56,32.62,-154.59
20210915,31,8,1,4,0,76.146,78.102,1.956,58028.58,59519.19,1490.61,0,0,1490.61,2.57,0
20210915,13,20,2,1,1,99.499,151.621,52.122,45320.8,65600.23,20279.43,2271.64,2175.56,19239.69,52.38,784.36
20210915,40,11,3,3,0,86.643,83.763,-2.88,15076.75,14575.6,-501.15,0,0,-501.15,-3.32,0
20210915,16,6,10,4,1,32.66,42.584,9.924,16917.88,20073.35,3155.47,1522.53,1307.66,2609.07,30.39,99.52
20210915,35,2,1,1,1,39.757,57.635,17.878,37867.35,44192.56,6325.21,7383.04,2785.79,7230.94,44.97,159.57
20210915,32,13,9,1,1,35.433,51.593,16.16,32224.19,37595.45,5371.26,6404.41,1782.58,6790.88,45.61,280.96
20210915,11,17,1,4,1,73.607,110.358,36.751,66477.43,80471.3,13993.87,12804.37,1039.33,19356.73,49.93,1762.42
20210915,25,12,10,4,0,30.933,31.004,0.071,21176.42,21225.03,48.61,0,0,48.61,0.23,0
20210915,42,15,10,3,1,78.358,122.524,44.166,49838.04,73363.29,23525.25,2919.88,1845.11,23140.08,56.36,1154.13
20210915,32,3,8,3,1,25.643,33.502,7.859,20309.77,23388.52,3078.75,2407.8,4491.78,-209.13,30.65,-104.66
20210915,1,20,8,1,0,91.299,95.709,4.41,24211.58,25381.07,1169.49,0,0,1169.49,4.83,0
20210915,10,14,7,3,0,22.589,22.088,-0.501,17326.44,16942.16,-384.28,0,0,-384.28,-2.22,0
20210915,17,11,6,3,1,52.011,80.865,28.854,16949.86,22122.1,5172.24,2721.3,3241.48,3291.41,55.48,1.54
20210915,46,8,8,3,1,61.105,83.034,21.929,26757.88,34046.06,7288.18,1703.27,3136.01,5003.8,35.89,59.56
20210915,4,19,9,1,1,27.439,39.174,11.735,7950.18,9908.92,1958.74,1009.58,4468.69,-2005.16,42.77,-144.87
20210915,50,16,6,1,1,41.242,56.688,15.446,20107.12,25365.62,5258.5,1652.97,2040.42,4044.56,37.45,98.22
20210915,19,1,5,3,0,96.955,101.44,4.485,86989,91012.98,4023.98,0,0,4023.98,4.63,0
20210915,7,3,3,1,1,34.696,45.648,10.952,12496.11,15448.71,2952.6,753.9,708.86,2620.69,31.57,269.7
20210915,40,16,4,1,1,75.447,111.104,35.657,52786.49,70230.47,17443.98,5095.34,1056.91,18934.74,47.26,1691.52
20210915,20,13,6,1,1,27.797,37.079,9.282,12987.59,14530.68,1543.09,2094.38,1828.26,762.02,33.39,-58.32
20210915,50,20,6,2,1,90.276,133.004,42.728,78032.77,94973.97,16941.2,13569.52,3824.96,19901,47.33,420.29
20210915,49,12,3,4,1,92.062,126.207,34.145,28684.68,33256.5,4571.82,4425.65,3665.6,3119.04,37.09,-14.91
20210915,25,12,4,4,1,61.242,81.255,20.013,41925.66,50144.66,8219,4131.56,3466.37,6818.41,32.68,96.7
20210915,42,14,5,1,0,69.396,67.334,-2.062,8845.91,8583.06,-262.85,0,0,-262.85,-2.97,0
20210915,44,3,3,1,0,61.961,62.289,0.328,35047,35232.53,185.53,0,0,185.53,0.53,0
20210915,29,6,8,4,1,16.855,22.397,5.542,2489.15,2687.55,198.4,466.61,3584.41,-3152.7,32.88,-187.96
20210915,50,16,1,1,1,33.843,52.727,18.884,16499.82,21024.82,4525,3004.96,2097.23,3930.25,55.8,87.4
20210915,16,6,1,4,1,14.345,22.472,8.127,7430.71,10204.47,2773.76,916.69,4419.01,-1186.9,56.65,-126.86
20210915,23,1,2,1,1,18.734,25.943,7.209,4904.75,5433.8,529.05,980.89,4695.86,-3676.36,38.48,-178.29
20210915,47,19,10,3,1,28.846,38.99,10.144,9871.97,11039.82,1167.85,1704.37,1356.67,663.36,35.17,-51.1
20210915,11,5,4,2,0,14.994,15.18,0.186,2985.01,3022.03,37.02,0,0,37.02,1.24,0
20210915,20,8,3,1,1,81.462,129.782,48.32,70313.93,104693.7,34379.77,4599.44,3849.75,32829.74,59.32,752.78
20210915,28,14,3,4,1,46.179,66.835,20.656,30692.41,38340.92,7648.51,4201.12,1456.43,8292.64,44.73,469.38
20210915,32,3,10,3,1,50.346,78.705,28.359,39875.04,55493.43,15618.39,4377.01,2901.83,14905.06,56.33,413.64
20210915,17,20,10,2,1,71.493,108.002,36.509,35812.27,45507.02,9694.75,5688.45,1758.21,10780.76,51.07,513.17
20210915,11,10,10,1,0,72.549,72.02,-0.529,41241.93,40941.21,-300.72,0,0,-300.72,-0.73,0
20210915,45,7,9,2,0,89.545,91.94,2.395,46954.71,48210.58,1255.87,0,0,1255.87,2.67,0
20210915,45,14,7,4,0,63.21,66.277,3.067,49073.08,51454.15,2381.07,0,0,2381.07,4.85,0
20210915,12,3,2,1,1,34.187,50.101,15.914,33999.31,46256.43,12257.12,2435.7,1447.52,12027.45,46.55,730.9
20210915,25,5,3,4,1,73.069,115.391,42.322,58111.78,80620.59,22508.81,7060.43,1426.88,24612.14,57.92,1624.89
20210915,47,12,4,1,1,40.664,54.877,14.213,30302.41,34362.02,4059.61,4840.06,2915.59,3564.05,34.95,22.24
20210915,46,8,2,3,1,31.861,46.293,14.432,13951.93,16801.2,2849.27,2388.56,4474.47,-430.92,45.3,-109.63
20210915,50,16,3,1,0,88.519,91.9,3.381,43156.55,44804.93,1648.38,0,0,1648.38,3.82,0
20210915,16,18,8,1,0,96.144,94.567,-1.577,54796.31,53897.52,-898.79,0,0,-898.79,-1.64,0
20210915,11,10,6,1,1,14.371,19.433,5.062,8169.48,9147.07,977.59,1405.08,4951.18,-3271.05,35.22,-166.07
20210915,48,7,4,3,1,94.365,129.501,35.136,28148.14,33789.23,5641.09,3526.55,4009.93,3394.44,37.23,-15.35
20210915,48,7,9,3,0,35.359,34.97,-0.389,10547.24,10431.2,-116.04,0,0,-116.04,-1.1,0
20210915,24,19,2,4,0,91.744,89.116,-2.628,15669.88,15221.01,-448.87,0,0,-448.87,-2.86,0
20210915,16,7,2,1,1,28.216,42.926,14.71,15262.03,20982.45,5720.42,1469.91,1936.44,4518.94,52.13,133.36
20210915,35,7,2,1,0,44.845,44.194,-0.651,23502.37,23161.19,-341.18,0,0,-341.18,-1.45,0
20210915,49,18,7,2,1,32.758,50.22,17.462,27708.68,34448.66,6739.98,5238.17,1122.58,8236.48,53.31,633.71
20210915,14,4,8,2,1,78.363,125.052,46.689,50158.59,70494.74,20336.15,5983.53,1097.86,22230.06,59.58,1924.85
20210915,8,16,5,2,1,33.087,47.721,14.634,5029.55,6456.5,1426.95,552.99,1432.11,271.34,44.23,-81.05
20210915,26,20,6,4,0,16.248,16.193,-0.055,9251.94,9220.62,-31.32,0,0,-31.32,-0.34,0
20210915,16,1,10,1,1,64.848,100.59,35.742,31726.24,43510.02,11783.78,3676.35,1981.17,11640.78,55.12,487.57
20210915,11,17,4,4,1,56.699,85.559,28.86,51207.13,62665.11,11457.98,9679.66,3875.66,12422.15,50.9,220.52
20210915,44,13,9,4,1,35.172,46.618,11.446,14700.14,15826.49,1126.35,2759.48,4686.16,-2180.07,32.54,-146.52
20210915,13,8,10,1,1,59.176,94.1,34.924,21007.48,27669.22,6661.74,3607.33,2696.08,5769.32,59.02,113.99
20210915,12,3,4,1,0,82.835,83.196,0.361,82380.24,82739.25,359.01,0,0,359.01,0.44,0
20210915,20,5,6,2,0,92.528,88.255,-4.273,21987.43,20972.04,-1015.39,0,0,-1015.39,-4.62,0
20210915,20,13,4,1,0,83.553,84.891,1.338,39038.47,39663.62,625.15,0,0,625.15,1.6,0
20210915,16,7,3,1,1,42.01,65.075,23.065,22723.21,31655.81,8932.6,2287.4,2612.93,7463.37,54.9,185.63
20210915,13,20,1,1,1,31.71,49.356,17.646,14443.59,18067.81,3624.22,2835.47,3642.01,1399.94,55.65,-61.56
20210915,44,9,1,3,1,12.786,20.448,7.662,12366.87,18392.88,6026.01,865.93,4145.41,2313.57,59.92,-44.19
20210915,47,14,10,4,1,20.057,26.886,6.829,11026.74,13382.7,2355.96,1043.22,1152.05,1725.52,34.05,49.78
20210915,42,14,5,1,0,75.851,78.998,3.147,9668.73,10069.88,401.15,0,0,401.15,4.15,0
20210915,11,15,1,2,1,94.966,136.733,41.767,75825.6,90620.98,14795.38,12886.06,4198.56,17039.85,43.98,305.85
20210915,49,12,1,4,0,19.014,19.963,0.949,5924.38,6220.07,295.69,0,0,295.69,4.99,0
20210915,8,16,4,2,1,37.613,49.808,12.195,5717.55,6856.2,1138.65,540.02,2953.88,-1545.22,32.42,-152.31
20210915,46,6,6,2,0,63.355,63.137,-0.218,42158.95,42013.89,-145.06,0,0,-145.06,-0.34,0
20210915,10,14,4,3,1,64.163,102.075,37.912,49214.95,70627.29,21412.34,4819.56,3098.62,20723.5,59.09,568.8
20210915,47,14,2,4,0,13.484,14.073,0.589,7413.1,7736.91,323.81,0,0,323.81,4.37,0
20210915,50,6,8,3,1,47.884,64.417,16.533,42318.92,50678.62,8359.7,4647.27,2879.12,7804.22,34.53,171.06
20210915,20,8,9,1,0,56.852,59.424,2.572,49071.8,51291.83,2220.03,0,0,2220.03,4.52,0
20210915,25,5,5,4,1,40.924,62.274,21.35,32546.86,42396.57,9849.71,4685.51,4536.87,7655.59,52.17,68.74
20210915,48,7,3,3,1,61.051,86.11,25.059,18210.9,23775.01,5564.11,1354.7,2177.53,4063.93,41.05,86.63
20210915,19,1,6,3,1,59.012,89.621,30.609,52946.16,70285.35,17339.19,6665.94,762.01,19910.15,51.87,2512.85
20210915,48,16,3,4,1,19.3,26.261,6.961,7081.36,8308.96,1227.6,974.86,3894.57,-2179.54,36.07,-155.96
20210915,4,19,5,1,0,71.127,73.477,2.35,20608.34,21289.23,680.89,0,0,680.89,3.3,0
20211015,14,4,4,2,1,54.7,83.819,29.119,35012.38,45325.21,10312.83,5433.29,2125.96,10903.52,53.23,412.88
20211015,47,12,1,4,0,81.959,78.575,-3.384,58570.36,56152.05,-2418.31,0,0,-2418.31,-4.13,0
20211015,24,19,6,4,0,63.368,61.919,-1.449,10823.25,10575.77,-247.48,0,0,-247.48,-2.29,0
20211015,50,13,3,2,1,65.951,104.955,39.004,18980.04,26601.08,7621.04,2264.61,4915.47,3837.88,59.14,-21.92
20211015,16,6,8,4,1,88.023,135.819,47.796,45595.91,62147.94,16552.03,5318.42,4896.3,14314.94,54.3,192.36
20211015,49,17,2,3,0,35.488,34.656,-0.832,32941.74,32169.43,-772.31,0,0,-772.31,-2.34,0
20211015,14,8,2,1,1,53.094,71.479,18.385,34830.73,42872.82,8042.09,2985.16,522.25,9012.42,34.63,1625.69
20211015,25,12,5,4,1,94.242,140.081,45.839,64517.13,89946.15,25429.02,4004.25,1971.32,25459.82,48.64,1191.51
20211015,20,5,8,2,1,83.155,123.08,39.925,19760.12,27095.63,7335.51,1453.84,2711.63,5350.8,48.01,97.33
20211015,45,7,1,2,1,81.78,107.59,25.81,42882.98,51683.42,8800.44,3598,3889.47,6709.97,31.56,72.52
20211015,49,12,6,4,1,55.408,77.936,22.528,17264.02,21834.97,4570.95,1740.62,1565.77,3875.49,40.66,147.51
20211015,16,6,5,4,1,19.687,26.176,6.489,10197.87,11225.02,1027.15,1755.52,2281.17,-376.26,32.96,-116.49
20211015,43,5,1,4,0,76.437,73.022,-3.415,48526.03,46358.02,-2168.01,0,0,-2168.01,-4.47,0
20211015,25,12,5,4,0,51.023,50.207,-0.816,34929.84,34371.21,-558.63,0,0,-558.63,-1.6,0
20211015,7,3,8,1,1,72.383,103.371,30.988,26069.46,33049.18,6979.72,2927.59,4699.56,3743.96,42.81,-20.33
20211015,48,7,1,3,0,22.745,23.363,0.618,6784.61,6968.95,184.34,0,0,184.34,2.72,0
20211015,32,3,9,3,1,71.161,109.723,38.562,56360.94,72677.19,16316.25,9226.05,3118.59,17810.68,54.19,471.11
20211015,19,1,6,3,0,93.571,89.418,-4.153,83952.84,80226.72,-3726.12,0,0,-3726.12,-4.44,0
20211015,41,11,1,2,0,15.062,15.105,0.043,1552.74,1557.17,4.43,0,0,4.43,0.29,0
20211015,35,7,2,1,0,14.513,14.745,0.232,7605.97,7727.56,121.59,0,0,121.59,1.6,0
20211015,49,18,9,2,0,89.614,89.174,-0.44,75800.9,75428.72,-372.18,0,0,-372.18,-0.49,0
20211015,50,16,3,1,1,12.435,19.889,7.454,6062.56,7788.58,1726.02,1192.98,4559.48,-2236.97,59.94,-149.06
20211015,13,8,2,1,0,55.859,57.401,1.542,19829.94,20377.36,547.42,0,0,547.42,2.76,0
20211015,47,12,2,4,0,63.699,61.821,-1.878,45521.22,44179.14,-1342.08,0,0,-1342.08,-2.95,0
20211015,45,14,7,4,1,80.178,113.607,33.429,62246.19,83498.27,21252.08,3317.39,1490.66,21420.12,41.69,1336.96
20211015,29,12,8,2,0,41.129,39.687,-1.442,32688.1,31542.04,-1146.06,0,0,-1146.06,-3.51,0
20211015,50,20,8,2,1,38.529,59.863,21.334,33303.7,42603.84,9300.14,5883.03,2237.54,10004.12,55.37,347.1
20211015,11,10,7,1,1,40.87,57.09,16.22,23233.37,26345.49,3112.12,4372.97,3989.78,1308.82,39.69,-67.2
20211015,42,8,7,1,0,99.949,100.323,0.374,58321.24,58539.47,218.23,0,0,218.23,0.37,0
20211015,17,11,6,3,1,81.382,116.139,34.757,26521.58,34497.04,7975.46,2348.49,3098.99,6050.72,42.71,95.25
20211015,45,14,5,4,0,38.251,37.183,-1.068,29696.16,28867.02,-829.14,0,0,-829.14,-2.79,0
20211015,16,7,10,1,1,92.625,138.77,46.145,50100.86,69662.77,19561.91,3602.96,1575.31,19788.08,49.82,1156.14
20211015,30,2,3,3,1,67.377,89.592,22.215,44474.21,49441.63,4967.42,7292,3608.52,5004.9,32.97,38.7
20211015,30,2,10,3,1,73.136,105.016,31.88,48275.61,60658.53,12382.92,6031.36,1386.48,14012.12,43.59,910.63
20211015,14,6,1,1,1,93.77,133.788,40.018,40032.29,54043.21,14010.92,2154.21,559.17,14528.86,42.68,2498.29
20211015,11,17,10,4,1,32.219,49.533,17.314,29098.27,36292.61,7194.34,5491.55,4192.15,5747.96,53.74,37.11
20211015,44,3,9,1,0,53.609,52.99,-0.619,30322.86,29972.73,-350.13,0,0,-350.13,-1.15,0
20211015,24,19,6,4,1,42.987,62.27,19.283,7342.18,10022.39,2680.21,423.4,3987.11,-1095.2,44.86,-127.47
20211015,11,17,2,4,1,18.109,24.816,6.707,16354.96,19350.44,2995.48,2234.35,1811.18,2301.48,37.04,27.07
20211015,26,10,7,3,1,77.247,122.821,45.574,69327.64,94135.56,24807.92,10122.05,3394,26474.94,59,680.05
20211015,42,14,1,1,1,48.309,71.671,23.362,6157.95,8397.72,2239.77,497.57,1324.54,1164.02,48.36,-12.12
20211015,50,6,4,3,1,75.141,115.941,40.8,66408.11,92981.4,26573.29,6147.15,581.37,29065.5,54.3,4899.48
20211015,1,13,2,4,1,82.357,116.511,34.154,54759.17,66414.73,11655.56,7813.24,2975.29,12586.89,41.47,323.05
20211015,20,5,2,2,1,34.464,48.167,13.703,8189.68,9497.08,1307.4,1394.42,4308.35,-2303.74,39.76,-153.47
20211015,25,5,1,4,1,96.076,152.209,56.133,76409.24,98116.67,21707.43,14476.92,4571.74,24374.15,58.43,433.15
20211015,29,6,6,4,0,85.61,84.412,-1.198,12642.88,12465.96,-176.92,0,0,-176.92,-1.4,0
20211015,46,6,3,2,1,45.389,67.527,22.138,30203.66,42114.43,11910.77,1895.99,4470.41,8388.36,48.77,87.64
20211015,16,7,10,1,1,92.118,141.296,49.178,49826.63,61489.37,11662.74,9738.6,1834.12,14697.92,53.39,701.36
20211015,47,14,8,4,1,95.107,128.213,33.106,52286.98,62007.84,9720.86,6290.24,3460.99,9404.99,34.81,171.74
20211015,49,12,10,4,1,13.27,20.272,7.002,4134.67,5074.4,939.73,812.98,2212.4,-866.18,52.77,-139.15
20211015,35,16,4,3,0,22.375,22.206,-0.169,11300.27,11214.92,-85.35,0,0,-85.35,-0.76,0
20211015,31,19,4,1,0,22.436,22.339,-0.097,10573.19,10527.48,-45.71,0,0,-45.71,-0.43,0
20211015,12,10,1,2,1,77.576,101.948,24.372,34119.48,38609.31,4489.83,4740.23,2740.81,4119.14,31.42,50.29
20211015,24,19,9,4,1,43.802,69.349,25.547,7481.38,9801.93,2320.55,1290.31,2436.26,529.44,58.32,-78.27
20211015,4,10,5,1,1,80.371,121.398,41.027,30394.7,39714.29,9319.59,4102.04,2439.27,8931.34,51.05,266.15
20211015,44,3,1,1,1,76.265,116.501,40.236,43137.77,60289.41,17151.64,3670.54,4579.52,14407.39,52.76,214.6
20211015,12,3,5,1,0,89.498,92.71,3.212,89006.66,92201.02,3194.36,0,0,3194.36,3.59,0
20211015,49,12,6,4,1,55.361,77.16,21.799,17249.38,21250.05,4000.67,2002.82,3108.43,1893.65,39.38,-39.08
20211015,3,12,10,1,1,33.046,45.697,12.651,9279.98,10266.79,986.81,1855.5,4556.65,-2642.09,38.28,-157.98
20211015,25,12,3,4,1,75.294,105.978,30.684,51545.52,67147.04,15601.52,3839.68,1618.34,15903.02,40.75,882.67
20211015,16,1,6,1,0,54.329,53.803,-0.526,26579.92,26322.58,-257.34,0,0,-257.34,-0.97,0
20211015,30,9,10,1,1,18.967,28.402,9.435,14803.93,20963.94,6160.01,804.1,2008.49,4553.57,49.74,126.72
20211015,47,19,7,3,1,27.237,39.353,12.116,9321.32,12364.68,3043.36,763.48,863.15,2561.95,44.48,196.81
20211015,32,3,2,3,1,45.957,73.481,27.524,36398.86,46647.46,10248.6,7224.29,3116.58,10744.16,59.89,244.74
20211015,50,16,5,1,1,36.53,51.785,15.255,17809.84,20704.76,2894.92,3204.35,2209.85,2287.24,41.76,3.5
20211015,20,5,1,2,0,87.468,84.472,-2.996,20785.02,20073.08,-711.94,0,0,-711.94,-3.43,0
20211015,31,19,5,1,1,72.243,108.756,36.513,34045.24,43333.75,9288.51,5260.06,3613.72,8304.82,50.54,129.81
20211015,35,2,6,1,1,44.957,62.164,17.207,42820.19,53981.64,11161.45,3780.68,1168.04,11883.75,38.27,917.41
20211015,40,16,4,1,1,35.278,54.365,19.087,24682.25,36011.18,11328.93,1314.23,4599.88,7386.16,54.1,60.57
20211015,49,17,1,3,1,48.645,71.054,22.409,45154.72,56401.75,11247.03,6540.95,3945.03,10572.48,46.07,167.99
20211015,1,13,9,4,0,84.523,84.715,0.192,56199.34,56327,127.66,0,0,127.66,0.23,0
20211015,34,14,1,1,0,60.105,63.026,2.921,25640.19,26886.26,1246.07,0,0,1246.07,4.86,0
20211015,31,8,7,4,1,32.655,44.796,12.141,24885.4,27501.81,2616.41,4837.36,2923.96,2111.13,37.18,-27.8
20211015,16,1,8,1,1,96.285,149.985,53.7,47106.47,67100.65,19994.18,4030.26,596.92,21412.39,55.77,3487.15
20211015,41,14,4,1,1,66.974,97.509,30.535,39575.61,47358.85,7783.24,7047.21,2551.23,8755.62,45.59,243.19
20211015,31,8,5,4,1,10.434,14.141,3.707,7951.44,9007.52,1056.08,1305.2,1994.96,-286.28,35.53,-114.35
20211015,29,6,1,4,0,72.65,72.49,-0.16,10728.95,10705.32,-23.63,0,0,-23.63,-0.22,0
20211015,21,19,9,1,1,89.358,137.797,48.439,61764.25,78789.68,17025.43,10671.06,3894.04,18466.92,54.21,374.24
20211015,47,14,6,4,1,12.392,19.063,6.671,6812.75,8395.01,1582.26,1355.53,2298.97,-38.94,53.83,-101.69
20211015,16,7,10,1,1,94.99,132.171,37.181,51380.09,65459.29,14079.2,4335.15,939.32,15307.46,39.14,1529.63
20211015,11,5,10,2,1,75.968,110.093,34.125,15123.71,18386.55,3262.84,2436.35,4380.78,100.24,44.92,-97.71
20211015,47,12,4,4,1,88.21,130.497,42.287,63037.51,78120.12,15082.61,10231.88,1094.94,19103.61,47.94,1644.72
20211015,42,14,1,1,1,87.237,120.545,33.308,11120.1,14516.73,3396.63,614.52,4646.5,-942.61,38.18,-120.29
20211015,38,9,1,4,0,46.428,45.19,-1.238,22590.01,21987.65,-602.36,0,0,-602.36,-2.67,0
20211015,25,5,2,4,1,25.043,36.248,11.205,19916.7,27236.53,7319.83,1099.54,976.45,6893.15,44.74,605.94
20211015,13,8,8,1,1,40.257,59.893,19.636,14291.23,19688.66,5397.43,1057.53,1151.67,4774.53,48.78,314.57
20211015,50,20,4,2,1,99.334,157.936,58.602,85862.32,122450.74,36588.42,8846.81,566.63,40445.2,58.99,7037.85
20211015,42,8,3,1,1,44.047,69.195,25.148,25701.86,35110.75,9408.89,3351.65,3421.64,7663.08,57.09,123.96
20211015,42,15,3,3,1,28.018,38.618,10.6,17820.29,22542.65,4722.36,1465.22,2094.25,3360.72,37.83,60.47
20211015,14,8,2,1,1,12.395,16.351,3.956,8131.37,8838.47,707.1,1431.3,2688.22,-1265.47,31.92,-147.07
20211015,49,12,4,4,1,56.645,77.156,20.511,17649.45,21048.84,3399.39,2196.19,827.12,3670.36,36.21,343.75
20211015,14,4,10,2,1,42.496,56.176,13.68,27200.84,32691.15,5490.31,2470.65,1203.81,5521.82,32.19,358.7
20211015,40,11,3,3,0,32.299,33.732,1.433,5620.35,5869.71,249.36,0,0,249.36,4.44,0
20211015,11,10,1,1,0,15.488,15.783,0.295,8804.46,8972.16,167.7,0,0,167.7,1.9,0
20211015,2,12,7,2,0,33.819,33.582,-0.237,32086.11,31861.26,-224.85,0,0,-224.85,-0.7,0
20211015,49,12,9,4,1,11.35,16.913,5.563,3536.43,4297.84,761.41,652.23,1496.06,-408.54,49.01,-127.31
20211115,40,16,2,1,1,76.182,79.533,3.351,53300.74,47890.12,-5410.62,7428.39,4453.18,-6149.6,4.4,-238.09
20211115,16,1,6,1,1,76.775,77.028,0.253,37561.4,32498.24,-5063.16,5169.9,2386.49,-4864.7,0.33,-303.84
20211115,14,4,5,2,0,32.63,34.075,1.445,20885.81,21810.73,924.92,0,0,924.92,4.43,0
20211115,35,7,2,1,1,59.779,63.454,3.675,31328.98,27578.28,-3750.7,5347.93,1977.81,-3054.54,6.15,-254.44
20211115,19,1,1,3,1,50.28,50.999,0.719,45111.72,43352.27,-1759.45,2370.64,4655.88,-5230.01,1.43,-212.33
20211115,45,7,6,2,1,64.957,69.786,4.829,34061.5,33542.27,-519.23,2840.27,3578.19,-2677.28,7.43,-174.82
20211115,16,18,1,1,1,70.693,76.407,5.714,40290.77,39430.09,-860.68,3809.41,806.17,237.86,8.08,-70.5
20211115,16,6,3,4,0,88.606,86.131,-2.475,45897.91,44615.86,-1282.05,0,0,-1282.05,-2.79,0
20211115,40,11,2,3,0,91.853,96.107,4.254,15983.34,16723.58,740.24,0,0,740.24,4.63,0
20211115,42,8,8,1,0,93.795,97.846,4.051,54730.32,57094.12,2363.8,0,0,2363.8,4.32,0
20211115,20,5,8,2,1,75.392,77.077,1.685,17915.4,14968.36,-2947.04,3274.27,4841.38,-6151.28,2.23,-227.06
20211115,29,12,9,2,0,88.034,87.972,-0.062,69966.78,69917.51,-49.27,0,0,-49.27,-0.07,0
20211115,26,20,6,4,1,98.209,106.319,8.11,55922.17,55951.99,29.82,4238.19,1264.9,884.01,8.26,-30.11
20211115,20,5,8,2,1,94.562,98.249,3.687,22470.77,20260.36,-2210.41,2970.72,4449.02,-5174.07,3.9,-216.3
20211115,49,17,2,3,0,42.503,41.235,-1.268,39453.41,38276.39,-1177.02,0,0,-1177.02,-2.98,0
20211115,47,19,7,3,1,10.386,10.775,0.389,3554.4,3074.56,-479.84,590.84,3315.02,-3499.44,3.75,-205.56
20211115,3,12,9,1,1,72.525,72.709,0.184,20366.47,17021.74,-3344.73,3387.8,3988.45,-5639.28,0.25,-241.39
20211115,13,12,4,2,1,23.122,24.154,1.032,4594.11,3873.03,-721.08,886.56,4194.41,-4472.21,4.46,-206.62
20211115,29,12,2,2,1,44.927,47.858,2.931,35706.63,32362.19,-3344.44,5326.42,1989.85,-2671.08,6.52,-234.24
20211115,35,7,1,1,1,13.973,14.323,0.35,7322.97,6836.02,-486.95,654,3097.46,-3257.41,2.5,-205.16
20211115,49,12,10,4,0,13.866,13.927,0.061,4320.37,4339.37,19,0,0,19,0.44,0
20211115,47,12,3,4,1,26.902,29.13,2.228,19224.98,18095.92,-1129.06,2513.11,2658.51,-2531.02,8.28,-195.2
20211115,49,12,3,4,1,56.862,61.587,4.725,17717.06,16441.9,-1275.16,2536.59,1951.74,-1958.6,8.31,-200.35
20211115,46,6,4,2,1,20.55,22.017,1.467,13674.79,12398.64,-1276.15,2102.27,2765.64,-2990.66,7.14,-208.14
20211115,30,2,6,3,0,11.914,12.475,0.561,7864.19,8234.5,370.31,0,0,370.31,4.71,0
20211115,31,19,5,1,1,62.374,65.828,3.454,29394.37,26013.62,-3380.75,4745.69,3280.67,-4288.58,5.54,-230.72
20211115,9,1,1,2,1,43.067,45.503,2.436,19845.27,17276,-2569.27,3494.15,1271.66,-2093.86,5.66,-264.66
20211115,46,16,10,2,1,47.191,51.283,4.092,34050.19,34596.49,546.3,2214.24,580.2,1073.22,8.67,84.97
20211115,16,7,2,1,0,72.068,73.838,1.77,38981.58,39938.97,957.39,0,0,957.39,2.46,0
20211115,12,10,4,2,1,27.485,28.16,0.675,12088.45,10889.69,-1198.76,1459.79,2891.58,-3360.44,2.46,-216.21
20211115,47,19,7,3,1,31.701,32.994,1.293,10849.03,9753.5,-1095.53,1477.77,1994.59,-2351.23,4.08,-217.88
20211115,17,20,9,2,0,72.386,70.499,-1.887,36259.6,35314.36,-945.24,0,0,-945.24,-2.61,0
20211115,16,1,4,1,1,64.45,66.626,2.176,31531.52,30671.95,-859.57,1861.32,3861.71,-3790.62,3.38,-198.16
20211115,7,17,3,4,1,16.723,17.41,0.687,4776.59,4540.71,-235.88,415.06,741.47,-769.82,4.11,-203.82
20211115,20,5,3,2,1,45.395,48.15,2.755,10787.21,9832.78,-954.43,1517.04,649.88,-845.79,6.07,-230.15
20211115,44,13,7,4,1,66.12,69.095,2.975,27634.85,23558.68,-4076.17,5090.53,728.2,-2259.1,4.5,-410.23
20211115,17,20,4,2,1,83.72,88.569,4.849,41937.02,36201.89,-5735.13,7717.12,3872,-5748.57,5.79,-248.47
20211115,46,6,9,2,1,96.08,97.995,1.915,63935.48,57159.06,-6776.42,7893.4,2222.84,-5052.56,1.99,-327.3
20211115,35,16,6,3,0,28.663,28.106,-0.557,14475.96,14194.65,-281.31,0,0,-281.31,-1.94,0
20211115,2,12,2,2,1,56.335,57.38,1.045,53448.39,48316.52,-5131.87,6011.81,3061.38,-5187.34,1.85,-269.44
20211115,45,14,5,4,1,16.493,17.966,1.473,12804.34,13146.26,341.92,735.92,588.47,121.41,8.93,-79.37
20211115,31,14,8,4,0,78.646,76.467,-2.179,61085.92,59393.45,-1692.47,0,0,-1692.47,-2.77,0
20211115,47,12,6,1,1,76.247,78.038,1.791,56818.5,54387.74,-2430.76,3678.98,626.39,-1217.66,2.35,-294.39
20211115,13,20,9,1,1,16.362,17.825,1.463,7452.73,7689.47,236.74,394.38,885.95,-452.02,8.94,-151.02
20211115,41,11,4,2,1,96.449,96.501,0.052,9942.93,8544.19,-1398.74,1403.34,4924.97,-5622.04,0.05,-214.15
20211115,2,9,10,2,1,86.993,91.448,4.455,16345.98,15781.5,-564.48,1333.3,4663.16,-4560.99,5.12,-197.81
20211115,16,7,5,1,1,12.635,13.541,0.906,6834.27,6854.93,20.66,437.99,2359.73,-2120.08,7.17,-189.84
20211115,31,19,2,1,1,88.611,92.971,4.36,41758.82,38116.98,-3641.84,5429.39,1341.75,-2268.9,4.92,-269.1
20211115,17,11,8,3,1,88.253,90.726,2.473,28760.77,24150.98,-4609.79,5268.09,3093.42,-5069.16,2.8,-263.87
20211115,6,6,5,2,1,87.93,91.479,3.549,13303.81,12432.26,-871.55,1353.87,2475.17,-2669.79,4.04,-207.86
20211115,35,16,2,3,1,94.036,94.087,0.051,47491.94,39462.63,-8029.31,8050.7,685.23,-4689.19,0.05,-784.32
20211115,13,8,5,1,0,58.938,61.8,2.862,20922.99,21939,1016.01,0,0,1016.01,4.86,0
20211115,41,14,9,1,0,72.755,70.004,-2.751,42991.66,41366.06,-1625.6,0,0,-1625.6,-3.78,0
20211115,1,13,4,4,1,29.184,32.012,2.828,19404.44,19452.1,47.66,1670.78,4297.64,-3414.59,9.69,-179.45
20211115,24,19,1,4,1,99.351,101.192,1.841,16969.15,15508.26,-1460.89,1743.03,3554.58,-4143.96,1.85,-216.58
20211115,20,13,6,1,1,52.621,53.993,1.372,24586.11,23961.87,-624.24,1233.13,925.84,-933.51,2.61,-200.83
20211115,9,1,2,2,1,49.641,49.96,0.319,22874.57,19824.01,-3050.56,3177.14,4538.11,-6000.1,0.64,-232.22
20211115,1,13,1,4,1,35.11,35.935,0.825,23344.64,19173.49,-4171.15,4611.33,3553.71,-5419.2,2.35,-252.49
20211115,46,8,9,3,0,16.223,16.04,-0.183,7104.05,7023.92,-80.13,0,0,-80.13,-1.13,0
20211115,17,11,4,3,1,29.714,30.173,0.459,9683.5,8201.97,-1481.53,1606.29,2406.77,-3085.16,1.54,-228.19
20211115,14,8,3,1,1,43.097,46.635,3.538,28272.49,25371.17,-2901.32,4826.12,2653.2,-3141.46,8.21,-218.4
20211115,29,6,9,4,1,69.392,71.339,1.947,10247.81,9626.55,-621.26,883.99,1301.91,-1481.18,2.81,-213.77
20211115,26,20,1,4,0,28.271,27.389,-0.882,16098.07,15595.84,-502.23,0,0,-502.23,-3.12,0
20211115,7,3,5,1,0,61.846,62.884,1.038,22274.46,22648.3,373.84,0,0,373.84,1.68,0
20211115,32,13,1,1,0,20.019,20.99,0.971,18206.08,19089.15,883.07,0,0,883.07,4.85,0
20211115,14,8,8,1,1,49.833,52.485,2.652,32691.44,31636.03,-1055.41,2653.94,3981.99,-3710.43,5.32,-193.18
20211115,7,3,9,1,1,61.057,63.745,2.688,21990.29,19363.79,-2626.5,3443.03,844.11,-1749.1,4.4,-307.21
20211115,35,16,10,3,1,21.357,22.143,0.786,10786.14,8949.91,-1836.23,2153.92,684.58,-1443.85,3.68,-310.91
20211115,41,11,9,2,1,47.712,49.007,1.295,4918.63,4177.96,-740.67,851.07,621.28,-936.41,2.71,-250.72
20211115,4,10,10,1,1,30.972,32.565,1.593,11712.99,10336.84,-1376.15,1881.8,3457.76,-3893.01,5.14,-212.59
20211115,41,14,7,1,0,40.599,38.974,-1.625,23990.36,23030.13,-960.23,0,0,-960.23,-4,0
20211115,44,13,3,4,1,15.238,16.62,1.382,6368.72,5760.56,-608.16,1087.17,4401.66,-4466.23,9.07,-201.47
20211115,8,16,8,2,1,38.436,41.047,2.611,5842.66,5723.51,-119.15,483.22,1691.55,-1569.09,6.79,-192.76
20211115,7,17,9,4,1,79.77,86.581,6.811,22784.71,20327.2,-2457.51,4056.57,1028.73,-1457.96,8.54,-241.72
20211115,39,14,7,4,1,39.067,41.555,2.488,19409.66,17066.08,-2343.58,3365.37,4748.55,-5409.44,6.37,-213.92
20211115,20,13,3,1,0,87.621,91.937,4.316,40939.16,42955.72,2016.56,0,0,2016.56,4.93,0
20211115,31,19,3,1,1,97.04,101.312,4.272,45731.07,40857.39,-4873.68,6596.51,3787.71,-5363.13,4.4,-241.59
20211115,32,3,4,3,1,27.23,29.093,1.863,21566.7,20646.41,-920.29,2242.4,2867.89,-2666.98,6.84,-192.99
20211115,49,12,3,4,1,23.052,24.054,1.002,7182.54,6189.63,-992.91,1250.75,2856.06,-3223.6,4.35,-212.87
20211115,8,1,4,1,0,88.592,91.534,2.942,81388.58,84091.37,2702.79,0,0,2702.79,3.32,0
20211115,20,8,5,1,1,46.923,47.912,0.989,40501.59,39197.27,-1304.32,2113.43,1934.49,-2182.1,2.11,-212.8
20211115,20,8,9,1,1,27.22,29.593,2.373,23494.94,22835.64,-659.3,2490.44,624.96,-39.04,8.72,-106.25
20211115,31,19,4,3,0,49.663,50.685,1.022,9261.16,9451.74,190.58,0,0,190.58,2.06,0
20211115,42,15,1,3,0,19.666,19.532,-0.134,12508.17,12422.94,-85.23,0,0,-85.23,-0.68,0
20211115,24,19,5,4,1,70.728,71.093,0.365,12080.34,11071.07,-1009.27,1066.11,3317.22,-3793.44,0.52,-214.36
20211115,47,14,3,4,0,11.162,11.08,-0.082,6136.53,6091.45,-45.08,0,0,-45.08,-0.73,0
20211115,41,11,5,2,1,61.444,65.571,4.127,6334.26,6238.2,-96.06,488.69,4063.65,-3915.36,6.72,-196.35
20211115,44,13,8,4,0,59.742,59.591,-0.151,24969.17,24906.06,-63.11,0,0,-63.11,-0.25,0
20211115,16,1,4,1,0,96.418,94.923,-1.495,47171.54,46440.13,-731.41,0,0,-731.41,-1.55,0
20211115,28,14,7,4,0,92.962,90.941,-2.021,61786.26,60443.03,-1343.23,0,0,-1343.23,-2.17,0
20211115,17,20,1,2,1,52.013,56.629,4.616,26054.35,23555.92,-2498.43,4418.54,609.68,-898.84,8.87,-247.43
20211115,16,1,5,1,1,83.101,83.691,0.59,40656.33,38069.86,-2586.47,2854.86,4233.21,-5392.25,0.71,-227.38
20211115,20,8,3,1,1,13.165,13.39,0.225,11363.37,10471.53,-891.84,1067.8,1443.62,-1801.56,1.71,-224.79
20211115,31,8,7,4,0,96.983,97.566,0.583,73907.83,74352.12,444.29,0,0,444.29,0.6,0
20211115,14,17,9,3,0,84.808,80.911,-3.897,34177.62,32607.13,-1570.49,0,0,-1570.49,-4.6,0
20211115,40,16,5,1,1,28.366,30.771,2.405,19846.27,20358.27,512,1079.16,1706.39,-654.81,8.48,-138.37
20211215,4,19,3,1,0,81.874,83.817,1.943,23722.17,24285.14,562.97,0,0,562.97,2.37,0
20211215,46,6,5,2,0,98.433,100.971,2.538,65501.26,67190.14,1688.88,0,0,1688.88,2.58,0
20211215,30,2,7,3,1,69.558,95.9,26.342,45913.84,52216.56,6302.72,8040.23,1038.83,9284.01,37.87,793.7
20211215,2,12,7,2,0,97.475,100.381,2.906,92480.38,95237.48,2757.1,0,0,2757.1,2.98,0
20211215,9,1,8,2,1,61.631,77.415,15.784,28399.56,32837.85,4438.29,2256.96,2306.26,3260.51,25.61,41.38
20211215,26,20,3,4,0,64.159,65.515,1.356,36533.42,37305.55,772.13,0,0,772.13,2.11,0
20211215,24,19,3,4,1,81.668,121.182,39.514,13948.89,18714.31,4765.42,1336.79,2691.31,2742.5,48.38,1.9
20211215,31,8,8,4,1,86.588,118.614,32.026,65986.12,79029.1,13042.98,8295.02,4610.69,12579.8,36.99,172.84
20211215,45,7,9,2,1,60.726,84.192,23.466,31842.89,38399.24,6556.35,4146.29,2568.85,6060.64,38.64,135.93
20211215,17,11,3,3,0,83.094,83.907,0.813,27079.5,27344.45,264.95,0,0,264.95,0.98,0
20211215,16,6,9,4,0,28.745,29.976,1.231,14889.91,15527.57,637.66,0,0,637.66,4.28,0
20211215,47,12,8,1,0,27.862,28.995,1.133,20762.48,21606.78,844.3,0,0,844.3,4.07,0
20211215,20,13,8,1,1,96.43,128.748,32.318,45054.99,50760.98,5705.99,7035.9,3658.64,5565.3,33.51,52.11
20211215,35,7,7,1,1,43.871,64.713,20.842,22991.91,29138.66,6146.75,3237.89,3480.98,4284.72,47.51,23.09
20211215,16,6,10,4,0,74.261,75.759,1.498,38467.2,39243.16,775.96,0,0,775.96,2.02,0
20211215,49,12,9,4,1,95.24,129.948,34.708,29674.88,33921.61,4246.73,4813.44,786.23,5867.22,36.44,646.25
20211215,10,16,9,1,0,47.538,48.73,1.192,6643.91,6810.5,166.59,0,0,166.59,2.51,0
20211215,13,8,7,1,1,77.233,115.351,38.118,27417.72,34683.9,7266.18,4195.19,4999.94,4363.84,49.35,-12.72
20211215,30,2,1,3,0,90.302,88.703,-1.599,59606.54,58551.08,-1055.46,0,0,-1055.46,-1.77,0
20211215,31,8,2,4,1,72.153,106.826,34.673,54985.64,66369.21,11383.57,10158.18,4241.12,12221.54,48.05,188.17
20211215,14,4,10,2,1,47.095,61.507,14.412,30144.57,37384.18,7239.61,1520.05,870.29,7129.34,30.6,719.19
20211215,16,1,2,1,0,71.772,74.185,2.413,35113.73,36294.27,1180.54,0,0,1180.54,3.36,0
20211215,45,14,10,4,1,14.815,21.03,6.215,11501.63,14351.69,2850.06,1391.29,4021.39,-475.68,41.95,-111.83
20211215,40,11,4,3,1,95.833,132.099,36.266,16675.9,21632.28,4956.38,982.47,1572.17,3875.44,37.84,146.5
20211215,29,12,10,2,0,61.251,61.91,0.659,48680.46,49204.21,523.75,0,0,523.75,1.08,0
20211215,44,13,2,4,1,40.743,51.771,11.028,17028.54,18305.3,1276.76,2622.54,3503.81,-915.78,27.07,-126.14
20211215,21,19,6,1,1,51.033,68.584,17.551,35274.01,41512.09,6238.08,4385.07,1596.33,6834.28,34.39,328.12
20211215,16,1,3,1,1,47.538,70.754,23.216,23257.49,29250.05,5992.56,3605.05,3413.84,4381.25,48.84,28.34
20211215,49,12,9,4,0,33.259,31.862,-1.397,10362.84,9927.56,-435.28,0,0,-435.28,-4.2,0
20211215,45,7,7,2,0,30.446,29.49,-0.956,15964.97,15463.67,-501.3,0,0,-501.3,-3.14,0
20211215,35,2,4,1,0,66.657,67.975,1.318,63488.79,64744.15,1255.36,0,0,1255.36,1.98,0
20211215,13,20,1,1,1,83.458,119.478,36.02,38014.28,47808.73,9794.45,4618.84,3827.54,8276.33,43.16,116.23
20211215,12,10,1,2,1,61.596,91.116,29.52,27091.15,36056.02,8964.87,2716.66,4267.85,6055.35,47.93,41.88
20211215,16,6,10,4,1,73.065,99.009,25.944,37847.67,47444.12,9596.45,2835.66,3829.97,7184.31,35.51,87.58
20211215,2,12,8,2,0,79.097,75.807,-3.29,75044.07,71922.65,-3121.42,0,0,-3121.42,-4.16,0
20211215,49,12,8,4,1,71.479,101.885,30.406,22271.43,27362.08,5090.65,3075.13,3093.58,3534.64,42.54,14.26
20211215,48,16,5,4,1,55.363,79.019,23.656,20313.24,25646.59,5333.35,2344.49,1372.89,5132.7,42.73,273.86
20211215,47,14,5,4,1,59.126,73.959,14.833,32505.7,32769.27,263.57,6308.54,3194.72,223.12,25.09,-93.02
20211215,41,19,2,1,1,41.204,55.98,14.776,34681.82,44602.18,9920.36,1852.44,1662.03,9184.55,35.86,452.61
20211215,13,20,5,1,1,20.185,26.552,6.367,9194.07,9903.5,709.43,1665.36,3839.84,-2297.73,31.54,-159.84
20211215,34,14,8,1,1,81.501,110.98,29.479,34767.51,38683.23,3915.72,6359.49,1469.77,5625.7,36.17,282.76
20211215,44,3,6,1,1,68.174,95.781,27.607,38561.26,51433.36,12872.1,1952.56,3054.01,10794.37,40.49,253.45
20211215,25,5,2,4,0,61.898,62.09,0.192,49227.48,49380.18,152.7,0,0,152.7,0.31,0
20211215,41,19,6,1,0,78.054,76.494,-1.56,65698.83,64385.76,-1313.07,0,0,-1313.07,-2,0
20211215,42,8,9,1,1,87.793,130.176,42.383,51228.09,65935.2,14707.11,6760.23,3661.95,14425.28,48.28,293.92
20211215,20,5,2,2,1,40.841,60.917,20.076,9705.05,13538,3832.95,628.67,3373.94,773.34,49.16,-77.08
20211215,31,8,7,4,0,20.604,20.025,-0.579,15701.69,15260.45,-441.24,0,0,-441.24,-2.81,0
20211215,2,9,7,2,1,41.119,54.564,13.445,7726.26,9579.39,1853.13,507.31,3528.61,-1421.82,32.7,-140.29
20211215,20,5,10,2,1,24.195,34.118,9.923,5749.46,6928.17,1178.71,836.3,2489.2,-892.34,41.01,-135.85
20211215,14,6,3,1,1,61.275,87.747,26.472,26159.52,30141.97,3982.45,5110.95,997.99,5539.94,43.2,455.11
20211215,29,6,5,4,0,77.842,74.7,-3.142,11495.71,11031.7,-464.01,0,0,-464.01,-4.04,0
20211215,31,19,9,3,1,54.773,78.895,24.122,10214.07,12417.15,2203.08,1593.44,4773.25,-1773.45,44.04,-137.15
20211215,32,13,10,1,1,42.721,60.862,18.141,38852.19,49204.17,10351.98,4314.2,775.67,11733.41,42.46,1412.68
20211215,42,15,8,3,1,88.358,113.795,25.437,56198.34,62606.51,6408.17,7586.49,556.76,9644.65,28.79,1632.28
20211215,31,19,5,3,0,47.514,48.782,1.268,8860.41,9096.87,236.46,0,0,236.46,2.67,0
20211215,32,13,8,1,1,90.049,117.097,27.048,81894.16,93326.55,11432.39,10124.93,2004.86,14490,30.04,622.74
20211215,20,13,1,1,0,47.275,45.376,-1.899,22088.3,21201.03,-887.27,0,0,-887.27,-4.02,0
20211215,13,2,4,4,0,42.589,43.957,1.368,21268.09,21951.25,683.16,0,0,683.16,3.21,0
20211215,44,9,1,3,0,39.327,38.396,-0.931,38037.86,37137.38,-900.48,0,0,-900.48,-2.37,0
20211215,50,6,2,3,1,46.172,60.416,14.244,40805.89,49172.71,8366.82,3226.4,4359.01,5621.01,30.85,28.95
20211215,46,8,9,3,1,54.993,77.898,22.905,24081.43,31553.68,7472.25,1805.74,866.31,7508.81,41.65,766.76
20211215,46,6,8,2,1,43.439,63.15,19.711,28906.05,38064.48,9158.43,2722.63,3066.5,7453.25,45.38,143.05
20211215,14,4,5,2,1,67.19,84.437,17.247,43006.98,50427.24,7420.26,2879.94,4694.66,4165.57,25.67,-11.27
20211215,42,14,10,1,1,89.749,116.496,26.747,11440.31,12064.4,624.09,2145.85,2038.33,-341.31,29.8,-116.74
20211215,28,14,5,4,0,72.154,68.999,-3.155,47956.43,45859.5,-2096.93,0,0,-2096.93,-4.37,0
20211215,10,16,5,1,0,33.133,34.116,0.983,4630.67,4768.05,137.38,0,0,137.38,2.97,0
20211215,49,17,3,3,0,78.99,81.161,2.171,73322.47,75337.7,2015.23,0,0,2015.23,2.75,0
20211215,23,1,8,1,1,41.145,56.393,15.248,10772.17,14004.89,3232.72,554.04,3127.16,382.58,37.06,-87.77
20211215,35,7,9,1,1,66.629,90.008,23.379,34918.93,44559.67,9640.74,1933.34,4468.18,6139.23,35.09,37.4
20211215,45,14,4,4,1,60.774,77.076,16.302,47181.89,49742.78,2560.89,7959.99,4407.32,2133.56,26.82,-51.59
20211215,32,3,1,3,1,14.299,18.771,4.472,11325.09,13654.96,2329.87,923.29,4041.93,-1250.42,31.27,-130.94
20211215,16,7,6,1,0,33.693,33.68,-0.013,18224.54,18217.51,-7.03,0,0,-7.03,-0.04,0
20211215,16,6,6,4,0,52.788,52.708,-0.08,27344.18,27302.74,-41.44,0,0,-41.44,-0.15,0
20211215,19,1,10,3,1,63.23,90.577,27.347,56730.59,66271.08,9540.49,10468.07,1639.1,13135.42,43.25,701.38
20211215,25,3,3,2,0,22.311,23.035,0.724,22507.11,23237.48,730.37,0,0,730.37,3.25,0
20211215,32,13,8,1,1,94.512,140.979,46.467,85952.99,110628.22,24675.23,11788.09,3470.28,27099,49.17,680.89
20211215,42,15,4,3,1,65.736,87.891,22.155,41810.07,46980.53,5170.46,6672.09,2654.53,5851.98,33.7,120.45
20211215,14,17,9,3,1,53.607,73.856,20.249,21603.62,25091.9,3488.28,3391.13,506.59,4677.26,37.77,823.28
20211215,1,13,7,4,1,46.066,69.003,22.937,30629.28,42267.43,11638.15,2411.79,871.26,11972.78,49.79,1274.19
20211215,1,13,10,4,1,38.516,51.978,13.462,25609.29,30770.21,5160.92,2808.39,910.59,5654.52,34.95,520.97
20211215,20,8,8,1,1,38.117,48.206,10.089,32900.69,37689.51,4788.82,3099.19,3278.23,3060.18,26.47,-6.65
20211215,16,1,2,1,0,27.18,28.206,1.026,13297.54,13799.5,501.96,0,0,501.96,3.77,0
20211215,11,15,7,2,1,43.004,58.736,15.732,34336.54,44131.14,9794.6,2025.6,2873.75,7933.65,36.58,176.07
20211215,16,1,5,1,1,11.837,17.553,5.716,5791.13,7501,1709.87,732.78,3927.86,-1851.6,48.29,-147.14
20211215,38,9,8,4,1,30.711,39.232,8.521,14942.74,17234.67,2291.93,1451.36,4713.24,-1695.63,27.75,-135.98
20211215,2,12,2,2,1,54.538,71.172,16.634,51743.47,59671.29,7927.82,6018.29,4783.22,6153.74,30.5,28.65
20211215,19,1,5,3,1,38.226,50.782,12.556,34296.75,42141.19,7844.44,2575.09,2351.58,6780.4,32.85,188.33
20211215,20,13,7,1,1,52.529,67.177,14.648,24543.12,29782.94,5239.82,1254.38,4674.4,1192.61,27.89,-74.49
20211215,50,6,1,3,1,83.891,125.07,41.179,74141.19,91566.34,17425.15,12722.85,1834.57,21952,49.09,1096.57
20211215,1,20,10,1,1,36.773,46.077,9.304,9751.83,10779.01,1027.18,1149.35,4902.17,-3300.31,25.3,-167.32
20211215,16,7,9,1,1,35.599,48.179,12.58,19255.5,20958.18,1702.68,3769.7,855.83,2731.7,35.34,219.19
20211215,26,20,2,4,0,24.688,25.473,0.785,14057.84,14504.84,447,0,0,447,3.18,0
20211215,28,14,5,4,0,16.856,17.434,0.578,11203.17,11587.33,384.16,0,0,384.16,3.43,0
20211215,44,9,7,3,0,38.499,38.413,-0.086,37237,37153.82,-83.18,0,0,-83.18,-0.22,0
20211215,46,16,8,2,0,22.813,21.975,-0.838,16460.49,15855.84,-604.65,0,0,-604.65,-3.67,0
20211215,35,7,8,1,1,64.275,83.526,19.251,33685.24,38917.19,5231.95,3737.65,4972.04,2128.73,29.95,-57.19
20220115,41,11,5,2,1,86.24,90.204,3.964,8890.48,8148.38,-742.1,1100.18,1769.37,-1961.38,4.6,-210.85
20220115,7,3,7,1,1,63.541,64.07,0.529,22884.93,18466.44,-4418.49,4570.96,1257.54,-3390.55,0.83,-369.62
20220115,13,20,2,1,1,37.796,38.513,0.717,17215.7,14176.5,-3039.2,3303.13,2062.03,-3449.66,1.9,-267.29
20220115,39,14,1,4,0,89.837,93.501,3.664,44633.72,46454.1,1820.38,0,0,1820.38,4.08,0
20220115,48,7,5,3,0,15.658,15.094,-0.564,4670.62,4502.39,-168.23,0,0,-168.23,-3.6,0
20220115,31,19,6,1,1,84.812,91.514,6.702,39968.5,35406.17,-4562.33,7155.29,1106.24,-2090.92,7.9,-289.01
20220115,13,12,5,2,1,76.893,83.679,6.786,15277.87,14847.82,-430.05,1634.14,1515.8,-1128.78,8.83,-174.47
20220115,25,12,2,4,1,46.106,49.561,3.455,31563.71,32208.45,644.74,1600.58,2794.94,-1349.91,7.49,-148.3
20220115,44,9,8,3,1,81.512,89.428,7.916,78840.04,77259,-1581.04,8419.86,4543.18,-1914.29,9.71,-142.14
20220115,29,12,5,2,1,72.972,79.091,6.119,57995.96,58186.17,190.21,4311.45,4000.08,-1654.14,8.39,-141.35
20220115,20,13,6,1,1,99.291,105.418,6.127,46391.73,42191.38,-4200.35,6652.56,2339.67,-3213.74,6.17,-237.36
20220115,23,1,8,1,1,14.014,14.529,0.515,3669.01,3439.68,-229.33,351.25,4627.2,-4680.9,3.67,-201.16
20220115,31,8,1,4,0,50.485,52.002,1.517,38473.1,39629.16,1156.06,0,0,1156.06,3,0
20220115,2,12,8,2,1,78.051,82.611,4.56,74051.67,68860.42,-5191.25,8992.24,1010.9,-1706.03,5.84,-268.76
20220115,47,12,9,4,0,10.716,11.147,0.431,7657.98,7965.98,308,0,0,308,4.02,0
